;FLAVOR:Marlin
;TIME:4702
;Filament used: 2.58537m
;Layer height: 0.1
;MINX:61.37
;MINY:98.87
;MINZ:0.3
;MAXX:188.63
;MAXY:156.13
;MAXZ:3
;POSTPROCESSED
;Generated with Cura_SteamEngine 4.13.1
M140 S60
M105
M190 S60
M104 S200
M105
M109 S200
M82 ;absolute extrusion mode
G21 ;metric values
G90 ;absolute positioning
M82 ;set extruder to absolute mode
M107 ;start with the fan off
G28 X0 Y0 ;move X/Y to min endstops
M300 S1318 P266
G28 Z0 ;move Z to min endstops
G0 Z0.2
G92 E0 ;zero the extruded length
G1 X40 E25 F400 ; Extrude 25mm of filament in a 4cm line. Reduce speed (F) if you have a nozzle smaller than 0.4mm!
G92 E0 ;zero the extruded length again
G1 E-1 F500 ; Retract a little
G1 X80 F4000 ; Quickly wipe away from the filament line
M117 ; Printing…
G5
G92 E0
G92 E0
G1 F1500 E-6.5
;LAYER_COUNT:18
;LAYER:0
M107
G1 F600 Z1.3
G0 F3600 X63.212 Y99.355 Z1.3
;TYPE:SKIRT
G1 F600 Z0.3
G1 F1500 E0
G1 F1800 X63.699 Y99.124 E0.02824
G1 X64.214 Y98.967 E0.05644
G1 X64.907 Y98.88 E0.09303
G1 X65.33 Y98.87 E0.11519
G1 X184.345 Y98.87 E6.34976
G1 X185.043 Y98.88 E6.38633
G1 X185.579 Y98.928 E6.41452
G1 X186.103 Y99.054 E6.44275
G1 X186.602 Y99.257 E6.47097
G1 X187.065 Y99.531 E6.49915
G1 X187.483 Y99.871 E6.52738
G1 X187.846 Y100.269 E6.5556
G1 X188.146 Y100.716 E6.5838
G1 X188.377 Y101.202 E6.61199
G1 X188.533 Y101.718 E6.64023
G1 X188.62 Y102.408 E6.67666
G1 X188.63 Y102.83 E6.69877
G1 X188.63 Y115.47 E7.36091
G1 X188.62 Y116.167 E7.39743
G1 X188.603 Y116.467 E7.41317
G1 X188.481 Y117.713 E7.47875
G1 X188.458 Y117.912 E7.48925
G1 X188.222 Y120.645 E7.63295
G1 X188.065 Y123.368 E7.77583
G1 X187.987 Y126.058 E7.9168
G1 X187.984 Y128.789 E8.05986
G1 X188.059 Y131.552 E8.20466
G1 X188.209 Y134.246 E8.346
G1 X188.434 Y136.934 E8.4873
G1 X188.6 Y138.49 E8.56927
G1 X188.628 Y139.095 E8.601
G1 X188.63 Y139.205 E8.60676
G1 X188.63 Y151.814 E9.26728
G1 X188.62 Y152.541 E9.30537
G1 X188.572 Y153.077 E9.33356
G1 X188.446 Y153.601 E9.36179
G1 X188.244 Y154.1 E9.38999
G1 X187.97 Y154.564 E9.41822
G1 X187.631 Y154.982 E9.44641
G1 X187.233 Y155.345 E9.47463
G1 X186.786 Y155.645 E9.50283
G1 X186.3 Y155.876 E9.53102
G1 X185.784 Y156.033 E9.55928
G1 X185.092 Y156.12 E9.59581
G1 X184.67 Y156.13 E9.61792
G1 X65.66 Y156.13 E15.85223
G1 X64.962 Y156.121 E15.8888
G1 X64.426 Y156.074 E15.91698
G1 X63.902 Y155.948 E15.94521
G1 X63.403 Y155.746 E15.97342
G1 X62.939 Y155.473 E16.00162
G1 X62.521 Y155.134 E16.02981
G1 X62.157 Y154.737 E16.05802
G1 X61.856 Y154.29 E16.08625
G1 X61.625 Y153.804 E16.11444
G1 X61.468 Y153.289 E16.14265
G1 X61.38 Y152.589 E16.1796
G1 X61.37 Y152.158 E16.20219
G1 X61.37 Y103.125 E18.77077
G1 X61.379 Y102.46 E18.80561
G1 X61.427 Y101.923 E18.83385
G1 X61.553 Y101.4 E18.86203
G1 X61.755 Y100.901 E18.89023
G1 X62.028 Y100.437 E18.91843
G1 X62.368 Y100.019 E18.94666
G1 X62.765 Y99.655 E18.97487
G1 X63.212 Y99.355 E19.00307
G0 F3600 X63.607 Y99.621
G1 F1800 X64.079 Y99.437 E19.02961
G1 X64.574 Y99.329 E19.05615
G1 X65.24 Y99.291 E19.0911
G1 X184.339 Y99.29 E25.33007
G1 X185.037 Y99.3 E25.36663
G1 X185.541 Y99.347 E25.39315
G1 X186.032 Y99.473 E25.4197
G1 X186.496 Y99.675 E25.44621
G1 X186.923 Y99.947 E25.47274
G1 X187.302 Y100.282 E25.49923
G1 X187.624 Y100.674 E25.52581
G1 X187.88 Y101.111 E25.55234
G1 X188.064 Y101.582 E25.57883
G1 X188.172 Y102.077 E25.60537
G1 X188.209 Y102.74 E25.64015
G1 X188.21 Y115.464 E26.3067
G1 X188.2 Y116.161 E26.34321
G1 X188.185 Y116.427 E26.35717
G1 X188.064 Y117.665 E26.42233
G1 X188.037 Y117.896 E26.43451
G1 X187.805 Y120.585 E26.5759
G1 X187.647 Y123.332 E26.72004
G1 X187.567 Y126.082 E26.86416
G1 X187.564 Y128.801 E27.00659
G1 X187.639 Y131.553 E27.15081
G1 X187.79 Y134.267 E27.2932
G1 X188.02 Y137.017 E27.43776
G1 X188.182 Y138.534 E27.51768
G1 X188.209 Y139.108 E27.54778
G1 X188.21 Y151.808 E28.21307
G1 X188.2 Y152.535 E28.25115
G1 X188.153 Y153.039 E28.27767
G1 X188.027 Y153.53 E28.30423
G1 X187.826 Y153.995 E28.33076
G1 X187.554 Y154.422 E28.35728
G1 X187.219 Y154.801 E28.38378
G1 X186.828 Y155.123 E28.41032
G1 X186.391 Y155.379 E28.43685
G1 X185.92 Y155.563 E28.46334
G1 X185.425 Y155.671 E28.48988
G1 X184.76 Y155.709 E28.52477
G1 X65.666 Y155.71 E34.76347
G1 X64.968 Y155.701 E34.80004
G1 X64.463 Y155.654 E34.82661
G1 X63.973 Y155.529 E34.8531
G1 X63.508 Y155.328 E34.87964
G1 X63.08 Y155.057 E34.90617
G1 X62.701 Y154.722 E34.93267
G1 X62.379 Y154.331 E34.95921
G1 X62.122 Y153.895 E34.98572
G1 X61.937 Y153.423 E35.01228
G1 X61.829 Y152.929 E35.03876
G1 X61.791 Y152.245 E35.07465
G1 X61.79 Y103.131 E37.64747
G1 X61.799 Y102.466 E37.68231
G1 X61.846 Y101.961 E37.70888
G1 X61.972 Y101.471 E37.73539
G1 X62.173 Y101.006 E37.76192
G1 X62.444 Y100.579 E37.78842
G1 X62.78 Y100.199 E37.81499
G1 X63.171 Y99.878 E37.84149
G1 X63.607 Y99.621 E37.868
G1 F1500 E31.368
G1 F600 Z1.3
;MESH:display-base-holes.stl
G0 F3600 X81.643 Y145.71 Z1.3
;TYPE:WALL-INNER
G1 F600 Z0.3
G1 F1500 E37.868
G1 F1800 X82.249 Y145.83 E37.90036
G1 X82.856 Y145.71 E37.93277
G1 X83.37 Y145.367 E37.96515
G1 X83.713 Y144.851 E37.9976
G1 X83.833 Y144.246 E38.02991
G1 X83.713 Y143.639 E38.06233
G1 X83.37 Y143.125 E38.0947
G1 X82.856 Y142.782 E38.12707
G1 X82.249 Y142.662 E38.15948
G1 X81.644 Y142.782 E38.19179
G1 X81.128 Y143.125 E38.22425
G1 X80.785 Y143.639 E38.25662
G1 X80.665 Y144.246 E38.28903
G1 X80.785 Y144.852 E38.32139
G1 X81.129 Y145.366 E38.35379
G1 X81.643 Y145.71 E38.38619
G0 F3600 X81.807 Y145.314
;TYPE:WALL-OUTER
G1 F1800 X82.249 Y145.402 E38.4098
G1 X82.692 Y145.314 E38.43346
G1 X83.067 Y145.064 E38.45707
G1 X83.317 Y144.688 E38.48072
G1 X83.405 Y144.246 E38.50433
G1 X83.317 Y143.803 E38.52799
G1 X83.067 Y143.428 E38.5516
G1 X82.692 Y143.178 E38.57521
G1 X82.249 Y143.09 E38.59887
G1 X81.807 Y143.178 E38.62248
G1 X81.431 Y143.428 E38.64613
G1 X81.181 Y143.803 E38.66974
G1 X81.093 Y144.246 E38.6934
G1 X81.181 Y144.688 E38.71701
G1 X81.432 Y145.063 E38.74065
G1 X81.807 Y145.314 E38.76429
G0 F3600 X82.003 Y145.353
G0 X81.912 Y145.806
G1 F1500 E32.26429
G1 F600 Z1.3
G0 F3600 X81.643 Y112.217 Z1.3
;TYPE:WALL-INNER
G1 F600 Z0.3
G1 F1500 E38.76429
G1 F1800 X82.249 Y112.337 E38.79665
G1 X82.856 Y112.217 E38.82906
G1 X83.37 Y111.874 E38.86143
G1 X83.713 Y111.358 E38.89389
G1 X83.833 Y110.753 E38.9262
G1 X83.713 Y110.146 E38.95861
G1 X83.37 Y109.632 E38.99098
G1 X82.856 Y109.289 E39.02335
G1 X82.249 Y109.169 E39.05577
G1 X81.644 Y109.289 E39.08808
G1 X81.128 Y109.632 E39.12053
G1 X80.785 Y110.146 E39.1529
G1 X80.665 Y110.753 E39.18532
G1 X80.785 Y111.359 E39.21768
G1 X81.129 Y111.873 E39.25008
G1 X81.643 Y112.217 E39.28248
G0 F3600 X81.807 Y111.821
;TYPE:WALL-OUTER
G1 F1800 X82.249 Y111.909 E39.30609
G1 X82.692 Y111.821 E39.32975
G1 X83.067 Y111.571 E39.35335
G1 X83.317 Y111.195 E39.37701
G1 X83.405 Y110.753 E39.40062
G1 X83.317 Y110.31 E39.42428
G1 X83.067 Y109.935 E39.44789
G1 X82.692 Y109.685 E39.47149
G1 X82.249 Y109.597 E39.49515
G1 X81.807 Y109.685 E39.51876
G1 X81.431 Y109.935 E39.54242
G1 X81.181 Y110.31 E39.56603
G1 X81.093 Y110.753 E39.58969
G1 X81.181 Y111.195 E39.61329
G1 X81.432 Y111.57 E39.63693
G1 X81.807 Y111.821 E39.66057
G0 F3600 X82.003 Y111.86
G0 X81.912 Y112.313
G1 F1500 E33.16057
G1 F600 Z1.3
G0 F3600 X167.148 Y112.217 Z1.3
;TYPE:WALL-INNER
G1 F600 Z0.3
G1 F1500 E39.66057
G1 F1800 X167.755 Y112.337 E39.69298
G1 X168.361 Y112.217 E39.72535
G1 X168.875 Y111.873 E39.75775
G1 X169.219 Y111.359 E39.79014
G1 X169.339 Y110.753 E39.82251
G1 X169.219 Y110.146 E39.85492
G1 X168.876 Y109.632 E39.88729
G1 X168.36 Y109.289 E39.91975
G1 X167.755 Y109.169 E39.95206
G1 X167.148 Y109.289 E39.98447
G1 X166.635 Y109.632 E40.0168
G1 X166.291 Y110.146 E40.0492
G1 X166.171 Y110.753 E40.08161
G1 X166.291 Y111.359 E40.11397
G1 X166.635 Y111.874 E40.14641
G1 X167.148 Y112.217 E40.17874
G0 F3600 X167.312 Y111.821
;TYPE:WALL-OUTER
G1 F1800 X167.755 Y111.909 E40.2024
G1 X168.197 Y111.821 E40.22601
G1 X168.572 Y111.57 E40.24965
G1 X168.823 Y111.195 E40.27329
G1 X168.911 Y110.753 E40.2969
G1 X168.823 Y110.31 E40.32055
G1 X168.573 Y109.935 E40.34416
G1 X168.197 Y109.685 E40.36782
G1 X167.755 Y109.597 E40.39143
G1 X167.312 Y109.685 E40.41509
G1 X166.938 Y109.935 E40.43865
G1 X166.687 Y110.31 E40.46229
G1 X166.599 Y110.753 E40.48595
G1 X166.687 Y111.195 E40.50956
G1 X166.938 Y111.571 E40.53324
G1 X167.312 Y111.821 E40.55681
G0 F3600 X167.508 Y111.86
G0 X167.418 Y112.312
G1 F1500 E34.05681
G1 F600 Z1.3
G0 F3600 X167.158 Y145.67 Z1.3
;TYPE:WALL-INNER
G1 F600 Z0.3
G1 F1500 E40.55681
G1 F1800 X167.755 Y145.785 E40.58866
G1 X168.35 Y145.67 E40.6204
G1 X168.865 Y145.345 E40.6523
G1 X169.214 Y144.844 E40.68429
G1 X169.34 Y144.246 E40.7163
G1 X169.214 Y143.645 E40.74847
G1 X168.865 Y143.147 E40.78032
G1 X168.35 Y142.82 E40.81228
G1 X167.755 Y142.708 E40.844
G1 X167.159 Y142.82 E40.87577
G1 X166.645 Y143.146 E40.90765
G1 X166.294 Y143.647 E40.93969
G1 X166.17 Y144.246 E40.97174
G1 X166.294 Y144.845 E41.00378
G1 X166.646 Y145.345 E41.03581
G1 X167.158 Y145.67 E41.06758
G0 F3600 X167.316 Y145.273
;TYPE:WALL-OUTER
G1 F1800 X167.755 Y145.357 E41.091
G1 X168.193 Y145.273 E41.11436
G1 X168.569 Y145.035 E41.13767
G1 X168.821 Y144.674 E41.16073
G1 X168.911 Y144.246 E41.18364
G1 X168.821 Y143.816 E41.20666
G1 X168.569 Y143.457 E41.22963
G1 X168.193 Y143.218 E41.25297
G1 X167.755 Y143.135 E41.27633
G1 X167.316 Y143.218 E41.29973
G1 X166.941 Y143.456 E41.323
G1 X166.688 Y143.817 E41.34609
G1 X166.599 Y144.246 E41.36904
G1 X166.688 Y144.674 E41.39194
G1 X166.942 Y145.035 E41.41506
G1 X167.316 Y145.273 E41.43829
G0 F3600 X167.512 Y145.31
G0 X167.424 Y145.764
G1 F1500 E34.93829
G1 F600 Z1.3
G0 F3600 X171.5 Y142.417 Z1.3
;TYPE:WALL-INNER
G1 F600 Z0.3
G1 F1500 E41.43829
G1 F1800 X171.5 Y139.505 E41.59083
G1 X184.37 Y139.505 E42.26502
G1 X184.37 Y151.87 E42.91276
G1 X65.63 Y151.87 E49.13292
G1 X65.63 Y103.13 E51.68615
G1 X184.37 Y103.13 E57.90631
G1 X184.37 Y115.495 E58.55405
G1 X171.5 Y115.495 E59.22824
G1 X171.5 Y112.583 E59.38078
G1 X168.361 Y112.583 E59.54522
G1 X167.755 Y112.583 E59.56837
G1 X167.148 Y112.583 E59.59156
G1 X82.856 Y112.583 E64.00717
G1 X82.249 Y112.583 E64.03035
G1 X81.643 Y112.583 E64.0535
G1 X78.5 Y112.583 E64.21815
G1 X78.5 Y142.417 E65.78099
G1 X81.644 Y142.417 E65.94569
G1 X82.249 Y142.417 E65.96873
G1 X82.856 Y142.417 E65.99184
G1 X167.159 Y142.417 E70.40802
G1 X167.755 Y142.417 E70.43386
G1 X168.35 Y142.417 E70.45965
G1 X171.5 Y142.417 E70.62466
G0 F3600 X171.08 Y141.997
;TYPE:WALL-OUTER
G1 F1800 X171.08 Y139.085 E70.7772
G1 X184.79 Y139.085 E71.4954
G1 X184.79 Y152.29 E72.18714
G1 X65.21 Y152.29 E78.4513
G1 X65.21 Y102.71 E81.04854
G1 X184.79 Y102.71 E87.3127
G1 X184.79 Y115.915 E88.00444
G1 X171.08 Y115.915 E88.72264
G1 X171.08 Y113.003 E88.87518
G1 X78.92 Y113.003 E93.70295
G1 X78.92 Y141.997 E95.2218
G1 X171.08 Y141.997 E100.04957
G0 F3600 X171.08 Y141.797
G0 X171.542 Y141.797
G1 F1500 E93.54957
G1 F600 Z1.3
G0 F3600 X171.91 Y142.827 Z1.3
;TYPE:SKIN
G1 F600 Z0.3
G1 F1500 E100.04957
G1 F1800 X171.91 Y139.915 E100.20212
G1 X183.96 Y139.915 E100.83335
G1 X183.96 Y151.46 E101.43813
G1 X66.04 Y151.46 E107.61534
G1 X66.04 Y103.54 E110.12561
G1 X183.96 Y103.54 E116.30282
G1 X183.96 Y115.085 E116.9076
G1 X171.91 Y115.085 E117.53884
G1 X171.91 Y112.173 E117.69138
G1 X169.163 Y112.173 E117.83528
G1 X169.17 Y112.168 E117.83573
G1 X169.605 Y111.519 E117.87666
G1 X169.757 Y110.753 E117.91757
G1 X169.605 Y109.986 E117.95853
G1 X169.171 Y109.336 E117.99947
G1 X168.52 Y108.903 E118.04043
G1 X167.755 Y108.751 E118.08129
G1 X166.988 Y108.903 E118.12225
G1 X166.34 Y109.337 E118.1631
G1 X165.905 Y109.986 E118.20403
G1 X165.753 Y110.753 E118.24499
G1 X165.905 Y111.519 E118.2859
G1 X166.34 Y112.169 E118.32687
G1 X166.346 Y112.173 E118.32725
G1 X83.66 Y112.173 E122.65873
G1 X83.666 Y112.169 E122.65911
G1 X84.099 Y111.518 E122.70007
G1 X84.251 Y110.753 E122.74093
G1 X84.099 Y109.986 E122.78189
G1 X83.665 Y109.337 E122.82278
G1 X83.016 Y108.903 E122.86368
G1 X82.249 Y108.751 E122.90464
G1 X81.484 Y108.903 E122.9455
G1 X80.833 Y109.336 E122.98646
G1 X80.399 Y109.986 E123.0274
G1 X80.247 Y110.753 E123.06836
G1 X80.399 Y111.519 E123.10927
G1 X80.834 Y112.168 E123.1502
G1 X80.841 Y112.173 E123.15065
G1 X78.09 Y112.173 E123.29476
G1 X78.09 Y142.827 E124.90056
G1 X80.836 Y142.827 E125.04441
G1 X80.399 Y143.479 E125.08553
G1 X80.247 Y144.246 E125.12649
G1 X80.399 Y145.012 E125.1674
G1 X80.834 Y145.661 E125.20832
G1 X81.483 Y146.096 E125.24925
G1 X82.249 Y146.248 E125.29016
G1 X83.016 Y146.096 E125.33112
G1 X83.666 Y145.662 E125.37206
G1 X84.099 Y145.011 E125.41302
G1 X84.251 Y144.246 E125.45388
G1 X84.099 Y143.479 E125.49484
G1 X83.665 Y142.83 E125.53574
G1 X83.661 Y142.827 E125.536
G1 X166.381 Y142.827 E129.86926
G1 X166.356 Y142.843 E129.87082
G1 X165.909 Y143.481 E129.91163
G1 X165.752 Y144.246 E129.95254
G1 X165.91 Y145.011 E129.99346
G1 X166.357 Y145.648 E130.03422
G1 X167.004 Y146.058 E130.07435
G1 X167.755 Y146.203 E130.11441
G1 X168.504 Y146.058 E130.15438
G1 X169.154 Y145.648 E130.19464
G1 X169.598 Y145.01 E130.23535
G1 X169.759 Y144.246 E130.27626
G1 X169.598 Y143.479 E130.31731
G1 X169.154 Y142.845 E130.35786
G1 X169.126 Y142.827 E130.3596
G1 X171.91 Y142.827 E130.50544
G1 F1500 E124.00544
G1 F600 Z1.3
G0 F3600 X183.77 Y104.178 Z1.3
G1 F600 Z0.3
G1 F1500 E130.50544
G1 F1800 X183.32 Y103.729 E130.53874
G0 F3600 X182.726 Y103.729
G1 F1800 X183.77 Y104.772 E130.61605
G0 F3600 X183.77 Y105.366
G1 F1800 X182.133 Y103.729 E130.73732
G0 F3600 X181.539 Y103.729
G1 F1800 X183.77 Y105.96 E130.9026
G0 F3600 X183.77 Y106.554
G1 F1800 X180.945 Y103.729 E131.11188
G0 F3600 X180.351 Y103.729
G1 F1800 X183.77 Y107.148 E131.36517
G0 F3600 X183.77 Y107.742
G1 F1800 X179.757 Y103.729 E131.66247
G0 F3600 X179.163 Y103.729
G1 F1800 X183.77 Y108.336 E132.00377
G0 F3600 X183.77 Y108.93
G1 F1800 X178.569 Y103.729 E132.38908
G0 F3600 X177.975 Y103.729
G1 F1800 X183.77 Y109.524 E132.81839
G0 F3600 X183.77 Y110.118
G1 F1800 X177.381 Y103.729 E133.29171
G0 F3600 X176.787 Y103.729
G1 F1800 X183.77 Y110.712 E133.80903
G0 F3600 X183.77 Y111.306
G1 F1800 X176.193 Y103.729 E134.37036
G0 F3600 X175.599 Y103.729
G1 F1800 X183.77 Y111.9 E134.97569
G0 F3600 X183.77 Y112.494
G1 F1800 X175.005 Y103.729 E135.62503
G0 F3600 X174.411 Y103.729
G1 F1800 X183.77 Y113.088 E136.31837
G0 F3600 X183.77 Y113.682
G1 F1800 X173.817 Y103.729 E137.05572
G0 F3600 X173.223 Y103.729
G1 F1800 X183.77 Y114.276 E137.83708
G0 F3600 X183.77 Y114.87
G1 F1800 X172.629 Y103.729 E138.66244
G0 F3600 X172.035 Y103.729
G1 F1800 X183.202 Y114.896 E139.48973
G0 F3600 X182.608 Y114.896
G1 F1800 X171.441 Y103.729 E140.31701
G0 F3600 X170.847 Y103.729
G1 F1800 X182.014 Y114.896 E141.1443
G0 F3600 X181.42 Y114.896
G1 F1800 X170.253 Y103.729 E141.97159
G0 F3600 X169.659 Y103.729
G1 F1800 X180.827 Y114.896 E142.79891
G0 F3600 X180.233 Y114.896
G1 F1800 X169.065 Y103.729 E143.62624
G0 F3600 X168.471 Y103.729
G1 F1800 X179.639 Y114.896 E144.45356
G0 F3600 X179.045 Y114.896
G1 F1800 X167.877 Y103.729 E145.28088
G0 F3600 X167.283 Y103.729
G1 F1800 X178.451 Y114.896 E146.10821
G0 F3600 X177.857 Y114.896
G1 F1800 X166.689 Y103.729 E146.93553
G0 F3600 X166.095 Y103.729
G1 F1800 X177.263 Y114.896 E147.76285
G0 F3600 X176.669 Y114.896
G1 F1800 X165.501 Y103.729 E148.59018
G0 F3600 X164.907 Y103.729
G1 F1800 X176.075 Y114.896 E149.4175
G0 F3600 X175.481 Y114.896
G1 F1800 X164.313 Y103.729 E150.24483
G0 F3600 X163.719 Y103.729
G1 F1800 X168.958 Y108.967 E150.63291
G0 F3600 X169.539 Y109.548
G1 F1800 X171.974 Y111.983 E150.8133
G1 X172.098 Y112.107
G1 X174.887 Y114.896 E151.01992
G0 F3600 X174.293 Y114.896
G1 F1800 X172.098 Y112.701 E151.18253
G0 F3600 X172.098 Y113.295
G1 F1800 X173.699 Y114.896 E151.30114
G0 F3600 X173.105 Y114.896
G1 F1800 X172.098 Y113.889 E151.37574
G0 F3600 X172.098 Y114.483
G1 F1800 X172.511 Y114.896 E151.40634
G1 F1500 E144.90634
G1 F600 Z1.3
G0 F3600 X171.38 Y111.983 Z1.3
G1 F600 Z0.3
G1 F1500 E151.40634
G1 F1800 X169.897 Y110.5 E151.5162
G0 F3600 X169.883 Y111.08
G1 F1800 X170.786 Y111.983 E151.5831
G0 F3600 X170.192 Y111.983
G1 F1800 X169.784 Y111.575 E151.61333
G1 F1500 E145.11333
