;FLAVOR:Marlin
;TIME:5652
;Filament used: 3.23792m
;Layer height: 0.1
;MINX:81.37
;MINY:93.87
;MINZ:0.3
;MAXX:168.63
;MAXY:161.13
;MAXZ:8
;Generated with Cura_SteamEngine 4.13.1
M140 S60
M105
M190 S60
M104 S200
M105
M109 S200
M82 ;absolute extrusion mode
G21 ;metric values
G90 ;absolute positioning
M82 ;set extruder to absolute mode
M107 ;start with the fan off
G28 X0 Y0 ;move X/Y to min endstops
M300 S1318 P266
G28 Z0 ;move Z to min endstops
G0 Z0.2
G92 E0 ;zero the extruded length
G1 X40 E25 F400 ; Extrude 25mm of filament in a 4cm line. Reduce speed (F) if you have a nozzle smaller than 0.4mm!
G92 E0 ;zero the extruded length again
G1 E-1 F500 ; Retract a little
G1 X80 F4000 ; Quickly wipe away from the filament line
M117 ; Printing…
G5
G92 E0
G92 E0
G1 F1500 E-6.5
;LAYER_COUNT:68
;LAYER:0
M107
G1 F600 Z1.3
G0 F3600 X82.765 Y94.655 Z1.3
;TYPE:SKIRT
G1 F600 Z0.3
G1 F1500 E0
G1 F1800 X83.212 Y94.355 E0.0282
G1 X83.699 Y94.124 E0.05644
G1 X84.214 Y93.967 E0.08464
G1 X84.907 Y93.88 E0.12123
G1 X85.33 Y93.87 E0.14339
G1 X164.345 Y93.87 E4.28257
G1 X165.043 Y93.88 E4.31914
G1 X165.579 Y93.928 E4.34733
G1 X166.103 Y94.054 E4.37556
G1 X166.602 Y94.257 E4.40378
G1 X167.065 Y94.531 E4.43197
G1 X167.483 Y94.871 E4.46019
G1 X167.846 Y95.269 E4.48841
G1 X168.146 Y95.716 E4.51661
G1 X168.377 Y96.202 E4.5448
G1 X168.533 Y96.718 E4.57304
G1 X168.62 Y97.408 E4.60947
G1 X168.63 Y97.83 E4.63158
G1 X168.63 Y111.851 E5.36607
G1 X168.619 Y112.57 E5.40374
G1 X168.575 Y113.079 E5.4305
G1 X168.5 Y113.555 E5.45574
G1 X168.116 Y116.253 E5.5985
G1 X167.807 Y118.966 E5.74154
G1 X167.575 Y121.686 E5.88454
G1 X167.423 Y124.374 E6.02558
G1 X167.345 Y127.138 E6.17043
G1 X167.345 Y129.831 E6.3115
G1 X167.423 Y132.597 E6.45645
G1 X167.574 Y135.28 E6.59722
G1 X167.807 Y138.007 E6.7406
G1 X168.113 Y140.71 E6.8831
G1 X168.503 Y143.444 E7.02777
G1 X168.583 Y143.984 E7.05636
G1 X168.628 Y144.722 E7.0951
G1 X168.63 Y144.832 E7.10086
G1 X168.63 Y156.809 E7.72827
G1 X168.621 Y157.536 E7.76636
G1 X168.574 Y158.072 E7.79454
G1 X168.449 Y158.596 E7.82276
G1 X168.247 Y159.096 E7.85101
G1 X167.974 Y159.56 E7.87921
G1 X167.635 Y159.978 E7.90741
G1 X167.238 Y160.342 E7.93562
G1 X166.792 Y160.643 E7.96381
G1 X166.305 Y160.875 E7.99207
G1 X165.79 Y161.032 E8.02027
G1 X165.093 Y161.12 E8.05707
G1 X164.67 Y161.13 E8.07924
G1 X85.66 Y161.13 E12.21815
G1 X84.962 Y161.121 E12.25472
G1 X84.426 Y161.074 E12.28291
G1 X83.902 Y160.948 E12.31114
G1 X83.403 Y160.746 E12.33934
G1 X82.939 Y160.473 E12.36754
G1 X82.521 Y160.134 E12.39573
G1 X82.157 Y159.737 E12.42395
G1 X81.856 Y159.29 E12.45218
G1 X81.625 Y158.804 E12.48037
G1 X81.468 Y158.289 E12.50857
G1 X81.38 Y157.589 E12.54553
G1 X81.37 Y157.158 E12.56811
G1 X81.37 Y98.125 E15.66054
G1 X81.379 Y97.46 E15.69538
G1 X81.427 Y96.923 E15.72362
G1 X81.553 Y96.4 E15.7518
G1 X81.755 Y95.901 E15.78
G1 X82.028 Y95.437 E15.8082
G1 X82.368 Y95.019 E15.83643
G1 X82.765 Y94.655 E15.86465
G0 F3600 X83.171 Y94.878
G1 F1800 X83.607 Y94.621 E15.89116
G1 X84.079 Y94.437 E15.9177
G1 X84.574 Y94.329 E15.94424
G1 X85.24 Y94.291 E15.97918
G1 X164.339 Y94.29 E20.12276
G1 X165.037 Y94.3 E20.15933
G1 X165.541 Y94.347 E20.18584
G1 X166.032 Y94.473 E20.2124
G1 X166.496 Y94.675 E20.23891
G1 X166.923 Y94.947 E20.26543
G1 X167.302 Y95.282 E20.29193
G1 X167.624 Y95.674 E20.3185
G1 X167.88 Y96.111 E20.34503
G1 X168.064 Y96.582 E20.37152
G1 X168.172 Y97.077 E20.39806
G1 X168.209 Y97.74 E20.43285
G1 X168.21 Y111.844 E21.17168
G1 X168.199 Y112.563 E21.20935
G1 X168.085 Y113.49 E21.25828
G1 X167.697 Y116.217 E21.40257
G1 X167.389 Y118.921 E21.54513
G1 X167.159 Y121.624 E21.68724
G1 X167.003 Y124.376 E21.83163
G1 X166.925 Y127.126 E21.97575
G1 X166.925 Y129.843 E22.11808
G1 X167.003 Y132.596 E22.26235
G1 X167.158 Y135.341 E22.40638
G1 X167.384 Y138.005 E22.54643
G1 X167.699 Y140.782 E22.69284
G1 X168.08 Y143.458 E22.83443
G1 X168.167 Y144.044 E22.86547
G1 X168.209 Y144.735 E22.90173
G1 X168.21 Y156.804 E23.53396
G1 X168.201 Y157.531 E23.57205
G1 X168.155 Y158.035 E23.59856
G1 X168.03 Y158.526 E23.6251
G1 X167.829 Y158.991 E23.65164
G1 X167.558 Y159.418 E23.67813
G1 X167.223 Y159.798 E23.70467
G1 X166.832 Y160.12 E23.7312
G1 X166.396 Y160.377 E23.75772
G1 X165.925 Y160.562 E23.78422
G1 X165.43 Y160.671 E23.81077
G1 X164.76 Y160.709 E23.84593
G1 X85.666 Y160.71 E27.98925
G1 X84.968 Y160.701 E28.02581
G1 X84.463 Y160.654 E28.05238
G1 X83.973 Y160.529 E28.07887
G1 X83.508 Y160.328 E28.10541
G1 X83.08 Y160.057 E28.13195
G1 X82.701 Y159.722 E28.15844
G1 X82.379 Y159.331 E28.18498
G1 X82.122 Y158.895 E28.21149
G1 X81.937 Y158.423 E28.23805
G1 X81.829 Y157.929 E28.26454
G1 X81.791 Y157.245 E28.30042
G1 X81.79 Y98.131 E31.39709
G1 X81.799 Y97.466 E31.43193
G1 X81.846 Y96.961 E31.4585
G1 X81.972 Y96.471 E31.485
G1 X82.173 Y96.006 E31.51154
G1 X82.444 Y95.579 E31.53803
G1 X82.78 Y95.199 E31.56461
G1 X83.171 Y94.878 E31.59111
G1 F1500 E25.09111
G1 F600 Z1.3
;MESH:motherboard-base.stl
G0 F3600 X159.366 Y145.132 Z1.3
;TYPE:WALL-INNER
G1 F600 Z0.3
G1 F1500 E31.59111
G1 F1800 X164.37 Y145.132 E31.85324
G1 X164.37 Y156.87 E32.46813
G1 X85.63 Y156.87 E36.5929
G1 X85.63 Y98.13 E39.66998
G1 X164.37 Y98.13 E43.79475
G1 X164.37 Y111.872 E44.51463
G1 X159.366 Y111.872 E44.77676
G1 X159.366 Y145.132 E46.51907
G0 F3600 X159.786 Y144.712
;TYPE:WALL-OUTER
G1 F1800 X164.79 Y144.712 E46.78121
G1 X164.79 Y157.29 E47.4401
G1 X85.21 Y157.29 E51.60888
G1 X85.21 Y97.71 E54.72996
G1 X164.79 Y97.71 E58.89873
G1 X164.79 Y112.292 E59.66261
G1 X159.786 Y112.292 E59.92474
G1 X159.786 Y144.712 E61.62305
G0 F3600 X159.986 Y144.712
G0 X159.986 Y145.174
G1 F1500 E55.12305
G1 F600 Z1.3
G0 F3600 X158.956 Y145.542 Z1.3
;TYPE:SKIN
G1 F600 Z0.3
G1 F1500 E61.62305
G1 F1800 X163.96 Y145.542 E61.88519
G1 X163.96 Y156.46 E62.45712
G1 X86.04 Y156.46 E66.53894
G1 X86.04 Y98.54 E69.57306
G1 X163.96 Y98.54 E73.65488
G1 X163.96 Y111.462 E74.33179
G1 X158.956 Y111.462 E74.59393
G1 X158.956 Y145.542 E76.3792
G1 F1500 E69.8792
G1 F600 Z1.3
G0 F3600 X163.77 Y99.027 Z1.3
G1 F600 Z0.3
G1 F1500 E76.3792
G1 F1800 X163.471 Y98.729 E76.40131
G0 F3600 X162.877 Y98.729
G1 F1800 X163.77 Y99.621 E76.46743
G0 F3600 X163.77 Y100.215
G1 F1800 X162.283 Y98.729 E76.57756
G0 F3600 X161.689 Y98.729
G1 F1800 X163.77 Y100.809 E76.73169
G0 F3600 X163.77 Y101.403
G1 F1800 X161.095 Y98.729 E76.92982
G0 F3600 X160.501 Y98.729
G1 F1800 X163.77 Y101.997 E77.17196
G0 F3600 X163.77 Y102.591
G1 F1800 X159.907 Y98.729 E77.45811
G0 F3600 X159.313 Y98.729
G1 F1800 X163.77 Y103.185 E77.78826
G0 F3600 X163.77 Y103.779
G1 F1800 X158.72 Y98.729 E78.16238
G0 F3600 X158.126 Y98.729
G1 F1800 X163.77 Y104.373 E78.58051
G0 F3600 X163.77 Y104.967
G1 F1800 X157.532 Y98.729 E79.04264
G0 F3600 X156.938 Y98.729
G1 F1800 X163.77 Y105.561 E79.54877
G0 F3600 X163.77 Y106.155
G1 F1800 X156.344 Y98.729 E80.09891
G0 F3600 X155.75 Y98.729
G1 F1800 X163.77 Y106.749 E80.69306
G0 F3600 X163.77 Y107.343
G1 F1800 X155.156 Y98.729 E81.33121
G0 F3600 X154.562 Y98.729
G1 F1800 X163.77 Y107.937 E82.01337
G0 F3600 X163.77 Y108.53
G1 F1800 X153.968 Y98.729 E82.7395
G0 F3600 X153.374 Y98.729
G1 F1800 X163.77 Y109.124 E83.50963
G0 F3600 X163.77 Y109.718
G1 F1800 X152.78 Y98.729 E84.32377
G0 F3600 X152.186 Y98.729
G1 F1800 X163.77 Y110.312 E85.18191
G0 F3600 X163.77 Y110.906
G1 F1800 X151.592 Y98.729 E86.08406
G0 F3600 X150.998 Y98.729
G1 F1800 X163.542 Y111.273 E87.01336
G0 F3600 X162.948 Y111.273
G1 F1800 X150.404 Y98.729 E87.94266
G0 F3600 X149.81 Y98.729
G1 F1800 X162.354 Y111.273 E88.87195
G0 F3600 X161.76 Y111.273
G1 F1800 X149.216 Y98.729 E89.80125
G0 F3600 X148.622 Y98.729
G1 F1800 X161.166 Y111.273 E90.73055
G0 F3600 X160.572 Y111.273
G1 F1800 X148.028 Y98.729 E91.65985
G0 F3600 X147.434 Y98.729
G1 F1800 X159.978 Y111.273 E92.58915
G0 F3600 X159.384 Y111.273
G1 F1800 X146.84 Y98.729 E93.51845
G0 F3600 X146.246 Y98.729
G1 F1800 X158.79 Y111.273 E94.44775
G0 F3600 X158.766 Y111.843
G1 F1800 X145.652 Y98.729 E95.41928
G0 F3600 X145.058 Y98.729
G1 F1800 X158.766 Y112.437 E96.43481
G0 F3600 X158.766 Y113.031
G1 F1800 X144.464 Y98.729 E97.49435
G0 F3600 X143.87 Y98.729
G1 F1800 X158.766 Y113.624 E98.59785
G0 F3600 X158.766 Y114.218
G1 F1800 X143.276 Y98.729 E99.74536
G0 F3600 X142.682 Y98.729
G1 F1800 X158.766 Y114.812 E100.93688
G0 F3600 X158.766 Y115.406
G1 F1800 X142.088 Y98.729 E102.1724
G0 F3600 X141.494 Y98.729
G1 F1800 X158.766 Y116 E103.45193
G0 F3600 X158.766 Y116.594
G1 F1800 X140.9 Y98.729 E104.77546
G0 F3600 X140.306 Y98.729
G1 F1800 X158.766 Y117.188 E106.143
G0 F3600 X158.766 Y117.782
G1 F1800 X139.712 Y98.729 E107.55455
G0 F3600 X139.119 Y98.729
G1 F1800 X158.766 Y118.376 E109.01006
G0 F3600 X158.766 Y118.97
G1 F1800 X138.525 Y98.729 E110.50957
G0 F3600 X137.931 Y98.729
G1 F1800 X158.766 Y119.564 E112.0531
G0 F3600 X158.766 Y120.158
G1 F1800 X137.337 Y98.729 E113.64063
G0 F3600 X136.743 Y98.729
G1 F1800 X158.766 Y120.752 E115.27216
G0 F3600 X158.766 Y121.346
G1 F1800 X136.149 Y98.729 E116.9477
G0 F3600 X135.555 Y98.729
G1 F1800 X158.766 Y121.94 E118.66724
G0 F3600 X158.766 Y122.534
G1 F1800 X134.961 Y98.729 E120.43079
G0 F3600 X134.367 Y98.729
G1 F1800 X158.766 Y123.128 E122.23835
G0 F3600 X158.766 Y123.722
G1 F1800 X133.773 Y98.729 E124.08991
G0 F3600 X133.179 Y98.729
G1 F1800 X158.766 Y124.316 E125.98548
G0 F3600 X158.766 Y124.91
G1 F1800 X132.585 Y98.729 E127.92505
G0 F3600 X131.991 Y98.729
G1 F1800 X158.766 Y125.504 E129.90862
G0 F3600 X158.766 Y126.098
G1 F1800 X131.397 Y98.729 E131.93621
G0 F3600 X130.803 Y98.729
G1 F1800 X158.766 Y126.692 E134.00779
G0 F3600 X158.766 Y127.286
G1 F1800 X130.209 Y98.729 E136.12339
G0 F3600 X129.615 Y98.729
G1 F1800 X158.766 Y127.88 E138.28299
G0 F3600 X158.766 Y128.474
G1 F1800 X129.021 Y98.729 E140.48659
G0 F3600 X128.427 Y98.729
G1 F1800 X158.766 Y129.068 E142.7342
G0 F3600 X158.766 Y129.662
G1 F1800 X127.833 Y98.729 E145.02581
G0 F3600 X127.239 Y98.729
G1 F1800 X158.766 Y130.256 E147.36143
G0 F3600 X158.766 Y130.85
G1 F1800 X126.645 Y98.729 E149.74106
G0 F3600 X126.051 Y98.729
G1 F1800 X158.766 Y131.444 E152.16469
G0 F3600 X158.766 Y132.038
G1 F1800 X125.457 Y98.729 E154.63233
G0 F3600 X124.863 Y98.729
G1 F1800 X158.766 Y132.632 E157.14397
G0 F3600 X158.766 Y133.225
G1 F1800 X124.269 Y98.729 E159.69958
G0 F3600 X123.675 Y98.729
G1 F1800 X158.766 Y133.819 E162.29919
G0 F3600 X158.766 Y134.413
G1 F1800 X123.081 Y98.729 E164.94281
G0 F3600 X122.487 Y98.729
G1 F1800 X158.766 Y135.007 E167.63044
G0 F3600 X158.766 Y135.601
G1 F1800 X121.893 Y98.729 E170.36207
G0 F3600 X121.299 Y98.729
G1 F1800 X158.766 Y136.195 E173.13771
G0 F3600 X158.766 Y136.789
G1 F1800 X120.705 Y98.729 E175.95735
G0 F3600 X120.111 Y98.729
G1 F1800 X158.766 Y137.383 E178.821
G0 F3600 X158.766 Y137.977
G1 F1800 X119.518 Y98.729 E181.72862
G0 F3600 X118.924 Y98.729
G1 F1800 X158.766 Y138.571 E184.68024
G0 F3600 X158.766 Y139.165
G1 F1800 X118.33 Y98.729 E187.67587
G0 F3600 X117.736 Y98.729
G1 F1800 X158.766 Y139.759 E190.7155
G0 F3600 X158.766 Y140.353
G1 F1800 X117.142 Y98.729 E193.79914
G0 F3600 X116.548 Y98.729
G1 F1800 X158.766 Y140.947 E196.92678
G0 F3600 X158.766 Y141.541
G1 F1800 X115.954 Y98.729 E200.09843
G0 F3600 X115.36 Y98.729
G1 F1800 X158.766 Y142.135 E203.31408
G0 F3600 X158.766 Y142.729
G1 F1800 X114.766 Y98.729 E206.57374
G0 F3600 X114.172 Y98.729
G1 F1800 X158.766 Y143.323 E209.87741
G0 F3600 X158.766 Y143.917
G1 F1800 X113.578 Y98.729 E213.22508
G0 F3600 X112.984 Y98.729
G1 F1800 X158.766 Y144.511 E216.61675
G0 F3600 X158.766 Y145.105
G1 F1800 X112.39 Y98.729 E220.05243
G0 F3600 X111.796 Y98.729
G1 F1800 X158.766 Y145.699 E223.53212
G1 X158.798 Y145.731
G1 X163.77 Y150.702 E223.90042
G0 F3600 X163.77 Y150.108
G1 F1800 X159.392 Y145.731 E224.22472
G0 F3600 X159.986 Y145.731
G1 F1800 X163.77 Y149.514 E224.50502
G0 F3600 X163.77 Y148.92
G1 F1800 X160.58 Y145.731 E224.74131
G0 F3600 X161.174 Y145.731
G1 F1800 X163.77 Y148.326 E224.93359
G0 F3600 X163.77 Y147.732
G1 F1800 X161.768 Y145.731 E225.08187
G0 F3600 X162.362 Y145.731
G1 F1800 X163.77 Y147.139 E225.18618
G0 F3600 X163.77 Y146.545
G1 F1800 X162.956 Y145.731 E225.24648
G0 F3600 X163.55 Y145.731
G1 F1800 X163.77 Y145.951 E225.26278
G1 F1500 E218.76278
G1 F600 Z1.3
G0 F3600 X163.77 Y151.296 Z1.3
G1 F600 Z0.3
G1 F1500 E225.26278
G1 F1800 X111.202 Y98.729 E229.15714
G0 F3600 X110.608 Y98.729
G1 F1800 X163.77 Y151.89 E233.09552
G0 F3600 X163.77 Y152.484
G1 F1800 X110.014 Y98.729 E237.07789
G0 F3600 X109.42 Y98.729
G1 F1800 X163.77 Y153.078 E241.10428
G0 F3600 X163.77 Y153.672
G1 F1800 X108.826 Y98.729 E245.17467
G0 F3600 X108.232 Y98.729
G1 F1800 X163.77 Y154.266 E249.28906
G0 F3600 X163.77 Y154.86
G1 F1800 X107.638 Y98.729 E253.44746
G0 F3600 X107.044 Y98.729
G1 F1800 X163.77 Y155.454 E257.64987
G0 F3600 X163.77 Y156.048
G1 F1800 X106.45 Y98.729 E261.89628
G0 F3600 X105.856 Y98.729
G1 F1800 X163.398 Y156.27 E266.15913
G0 F3600 X162.804 Y156.27
G1 F1800 X105.262 Y98.729 E270.42199
G0 F3600 X104.668 Y98.729
G1 F1800 X162.21 Y156.27 E274.68485
G0 F3600 X161.616 Y156.27
G1 F1800 X104.074 Y98.729 E278.9477
G0 F3600 X103.48 Y98.729
G1 F1800 X161.022 Y156.27 E283.21056
G0 F3600 X160.428 Y156.27
G1 F1800 X102.886 Y98.729 E287.47342
G0 F3600 X102.292 Y98.729
G1 F1800 X159.834 Y156.27 E291.73627
G0 F3600 X159.24 Y156.27
G1 F1800 X101.698 Y98.729 E295.99913
G0 F3600 X101.104 Y98.729
G1 F1800 X158.646 Y156.27 E300.26199
G0 F3600 X158.052 Y156.27
G1 F1800 X100.51 Y98.729 E304.52484
G0 F3600 X99.917 Y98.729
G1 F1800 X157.458 Y156.27 E308.78766
G0 F3600 X156.864 Y156.27
G1 F1800 X99.323 Y98.729 E313.05048
G0 F3600 X98.729 Y98.729
G1 F1800 X156.27 Y156.27 E317.3133
G0 F3600 X155.676 Y156.27
G1 F1800 X98.135 Y98.729 E321.57612
G0 F3600 X97.541 Y98.729
G1 F1800 X155.082 Y156.27 E325.83894
G0 F3600 X154.488 Y156.27
G1 F1800 X96.947 Y98.729 E330.10176
G0 F3600 X96.353 Y98.729
G1 F1800 X153.894 Y156.27 E334.36458
G0 F3600 X153.3 Y156.27
G1 F1800 X95.759 Y98.729 E338.6274
G0 F3600 X95.165 Y98.729
G1 F1800 X152.706 Y156.27 E342.89022
G0 F3600 X152.112 Y156.27
G1 F1800 X94.571 Y98.729 E347.15304
G0 F3600 X93.977 Y98.729
G1 F1800 X151.518 Y156.27 E351.41586
G0 F3600 X150.924 Y156.27
G1 F1800 X93.383 Y98.729 E355.67868
G0 F3600 X92.789 Y98.729
G1 F1800 X150.33 Y156.27 E359.9415
G0 F3600 X149.736 Y156.27
G1 F1800 X92.195 Y98.729 E364.20432
G0 F3600 X91.601 Y98.729
G1 F1800 X149.142 Y156.27 E368.46714
G0 F3600 X148.548 Y156.27
G1 F1800 X91.007 Y98.729 E372.72996
G0 F3600 X90.413 Y98.729
G1 F1800 X147.955 Y156.27 E376.99282
G0 F3600 X147.361 Y156.27
G1 F1800 X89.819 Y98.729 E381.25567
G0 F3600 X89.225 Y98.729
G1 F1800 X146.767 Y156.27 E385.51853
G0 F3600 X146.173 Y156.27
G1 F1800 X88.631 Y98.729 E389.78139
G0 F3600 X88.037 Y98.729
G1 F1800 X145.579 Y156.27 E394.04424
G0 F3600 X144.985 Y156.27
G1 F1800 X87.443 Y98.729 E398.3071
G0 F3600 X86.849 Y98.729
G1 F1800 X144.391 Y156.27 E402.56996
G0 F3600 X143.797 Y156.27
G1 F1800 X86.255 Y98.729 E406.83281
G0 F3600 X86.228 Y99.296
G1 F1800 X143.203 Y156.27 E411.05367
G0 F3600 X142.609 Y156.27
G1 F1800 X86.228 Y99.89 E415.23051
G0 F3600 X86.228 Y100.484
G1 F1800 X142.015 Y156.27 E419.36335
G0 F3600 X141.421 Y156.27
G1 F1800 X86.228 Y101.078 E423.45219
G0 F3600 X86.228 Y101.672
G1 F1800 X140.827 Y156.27 E427.49702
G0 F3600 X140.233 Y156.27
G1 F1800 X86.228 Y102.266 E431.49784
G0 F3600 X86.228 Y102.859
G1 F1800 X139.639 Y156.27 E435.4547
G0 F3600 X139.045 Y156.27
G1 F1800 X86.228 Y103.453 E439.36755
G0 F3600 X86.228 Y104.047
G1 F1800 X138.451 Y156.27 E443.2364
G0 F3600 X137.857 Y156.27
G1 F1800 X86.228 Y104.641 E447.06124
G0 F3600 X86.228 Y105.235
G1 F1800 X137.263 Y156.27 E450.84207
G0 F3600 X136.669 Y156.27
G1 F1800 X86.228 Y105.829 E454.5789
G0 F3600 X86.228 Y106.423
G1 F1800 X136.075 Y156.27 E458.27172
G0 F3600 X135.481 Y156.27
G1 F1800 X86.228 Y107.017 E461.92054
G0 F3600 X86.228 Y107.611
G1 F1800 X134.887 Y156.27 E465.52535
G0 F3600 X134.293 Y156.27
G1 F1800 X86.228 Y108.205 E469.08616
G0 F3600 X86.228 Y108.799
G1 F1800 X133.699 Y156.27 E472.60296
G0 F3600 X133.105 Y156.27
G1 F1800 X86.228 Y109.393 E476.07576
G0 F3600 X86.228 Y109.987
