;FLAVOR:Marlin
;TIME:5456
;Filament used: 3.15984m
;Layer height: 0.1
;MINX:81.37
;MINY:93.87
;MINZ:0.3
;MAXX:168.63
;MAXY:161.13
;MAXZ:8.4
;Generated with Cura_SteamEngine 4.13.1
M140 S60
M105
M190 S60
M104 S200
M105
M109 S200
M82 ;absolute extrusion mode
G21 ;metric values
G90 ;absolute positioning
M82 ;set extruder to absolute mode
M107 ;start with the fan off
G28 X0 Y0 ;move X/Y to min endstops
M300 S1318 P266
G28 Z0 ;move Z to min endstops
G0 Z0.2
G92 E0 ;zero the extruded length
G1 X40 E25 F400 ; Extrude 25mm of filament in a 4cm line. Reduce speed (F) if you have a nozzle smaller than 0.4mm!
G92 E0 ;zero the extruded length again
G1 E-1 F500 ; Retract a little
G1 X80 F4000 ; Quickly wipe away from the filament line
M117 ; Printing…
G5
G92 E0
G92 E0
G1 F1500 E-6.5
;LAYER_COUNT:72
;LAYER:0
M107
G1 F600 Z1.3
G0 F3600 X82.765 Y94.655 Z1.3
;TYPE:SKIRT
G1 F600 Z0.3
G1 F1500 E0
G1 F1800 X83.212 Y94.355 E0.0282
G1 X83.699 Y94.124 E0.05644
G1 X84.214 Y93.967 E0.08464
G1 X84.907 Y93.88 E0.12123
G1 X85.33 Y93.87 E0.14339
G1 X164.345 Y93.87 E4.28257
G1 X165.043 Y93.88 E4.31914
G1 X165.579 Y93.928 E4.34733
G1 X166.103 Y94.054 E4.37556
G1 X166.602 Y94.257 E4.40378
G1 X167.065 Y94.531 E4.43197
G1 X167.483 Y94.871 E4.46019
G1 X167.846 Y95.269 E4.48841
G1 X168.146 Y95.716 E4.51661
G1 X168.377 Y96.202 E4.5448
G1 X168.533 Y96.718 E4.57304
G1 X168.62 Y97.408 E4.60947
G1 X168.63 Y97.83 E4.63158
G1 X168.63 Y156.809 E7.72118
G1 X168.621 Y157.536 E7.75927
G1 X168.574 Y158.072 E7.78745
G1 X168.449 Y158.596 E7.81567
G1 X168.247 Y159.096 E7.84392
G1 X167.974 Y159.56 E7.87212
G1 X167.635 Y159.978 E7.90032
G1 X167.238 Y160.342 E7.92853
G1 X166.792 Y160.643 E7.95672
G1 X166.305 Y160.875 E7.98498
G1 X165.79 Y161.032 E8.01318
G1 X165.093 Y161.12 E8.04998
G1 X164.67 Y161.13 E8.07215
G1 X85.66 Y161.13 E12.21106
G1 X84.962 Y161.121 E12.24763
G1 X84.426 Y161.074 E12.27582
G1 X83.902 Y160.948 E12.30405
G1 X83.403 Y160.746 E12.33225
G1 X82.939 Y160.473 E12.36045
G1 X82.521 Y160.134 E12.38864
G1 X82.157 Y159.737 E12.41686
G1 X81.856 Y159.29 E12.44509
G1 X81.625 Y158.804 E12.47328
G1 X81.468 Y158.289 E12.50148
G1 X81.38 Y157.589 E12.53844
G1 X81.37 Y157.158 E12.56102
G1 X81.37 Y98.125 E15.65345
G1 X81.379 Y97.46 E15.68829
G1 X81.427 Y96.923 E15.71653
G1 X81.553 Y96.4 E15.74471
G1 X81.755 Y95.901 E15.77291
G1 X82.028 Y95.437 E15.80111
G1 X82.368 Y95.019 E15.82934
G1 X82.765 Y94.655 E15.85755
G0 F3600 X83.171 Y94.878
G1 F1800 X83.607 Y94.621 E15.88407
G1 X84.079 Y94.437 E15.9106
G1 X84.574 Y94.329 E15.93715
G1 X85.24 Y94.291 E15.97209
G1 X164.339 Y94.29 E20.11567
G1 X165.037 Y94.3 E20.15224
G1 X165.541 Y94.347 E20.17875
G1 X166.032 Y94.473 E20.20531
G1 X166.496 Y94.675 E20.23182
G1 X166.923 Y94.947 E20.25834
G1 X167.302 Y95.282 E20.28484
G1 X167.624 Y95.674 E20.31141
G1 X167.88 Y96.111 E20.33794
G1 X168.064 Y96.582 E20.36443
G1 X168.172 Y97.077 E20.39097
G1 X168.209 Y97.74 E20.42576
G1 X168.21 Y156.804 E23.51981
G1 X168.201 Y157.531 E23.55789
G1 X168.155 Y158.035 E23.58441
G1 X168.03 Y158.526 E23.61095
G1 X167.829 Y158.991 E23.63748
G1 X167.558 Y159.418 E23.66398
G1 X167.223 Y159.798 E23.69051
G1 X166.832 Y160.12 E23.71705
G1 X166.396 Y160.377 E23.74356
G1 X165.925 Y160.562 E23.77007
G1 X165.43 Y160.671 E23.79662
G1 X164.76 Y160.709 E23.83177
G1 X85.666 Y160.71 E27.97509
G1 X84.968 Y160.701 E28.01166
G1 X84.463 Y160.654 E28.03823
G1 X83.973 Y160.529 E28.06472
G1 X83.508 Y160.328 E28.09125
G1 X83.08 Y160.057 E28.11779
G1 X82.701 Y159.722 E28.14429
G1 X82.379 Y159.331 E28.17082
G1 X82.122 Y158.895 E28.19734
G1 X81.937 Y158.423 E28.22389
G1 X81.829 Y157.929 E28.25038
G1 X81.791 Y157.245 E28.28627
G1 X81.79 Y98.131 E31.38294
G1 X81.799 Y97.466 E31.41778
G1 X81.846 Y96.961 E31.44435
G1 X81.972 Y96.471 E31.47085
G1 X82.173 Y96.006 E31.49739
G1 X82.444 Y95.579 E31.52388
G1 X82.78 Y95.199 E31.55045
G1 X83.171 Y94.878 E31.57695
G1 F1500 E25.07695
G1 F600 Z1.3
;MESH:motherboard-base.stl
G0 F3600 X164.37 Y156.87 Z1.3
;TYPE:WALL-INNER
G1 F600 Z0.3
G1 F1500 E31.57695
G1 F1800 X85.63 Y156.87 E35.70172
G1 X85.63 Y98.13 E38.7788
G1 X164.37 Y98.13 E42.90357
G1 X164.37 Y156.87 E45.98065
G0 F3600 X164.79 Y157.29
;TYPE:WALL-OUTER
G1 F1800 X85.21 Y157.29 E50.14943
G1 X85.21 Y97.71 E53.27051
G1 X164.79 Y97.71 E57.43929
G1 X164.79 Y157.29 E60.56037
G0 F3600 X164.59 Y157.29
G0 X164.328 Y156.828
G0 X163.96 Y156.46
;TYPE:SKIN
G1 F1800 X86.04 Y156.46 E64.64218
G1 X86.04 Y98.54 E67.67631
G1 X163.96 Y98.54 E71.75812
G1 X163.96 Y156.46 E74.79224
G1 F1500 E68.29224
G1 F600 Z1.3
G0 F3600 X163.77 Y99.027 Z1.3
G1 F600 Z0.3
G1 F1500 E74.79224
G1 F1800 X163.471 Y98.729 E74.81436
G0 F3600 X162.877 Y98.729
G1 F1800 X163.77 Y99.621 E74.88048
G0 F3600 X163.77 Y100.215
G1 F1800 X162.283 Y98.729 E74.9906
G0 F3600 X161.689 Y98.729
G1 F1800 X163.77 Y100.809 E75.14473
G0 F3600 X163.77 Y101.403
G1 F1800 X161.095 Y98.729 E75.34287
G0 F3600 X160.501 Y98.729
G1 F1800 X163.77 Y101.997 E75.58501
G0 F3600 X163.77 Y102.591
G1 F1800 X159.907 Y98.729 E75.87116
G0 F3600 X159.313 Y98.729
G1 F1800 X163.77 Y103.185 E76.20131
G0 F3600 X163.77 Y103.779
G1 F1800 X158.72 Y98.729 E76.57543
G0 F3600 X158.126 Y98.729
G1 F1800 X163.77 Y104.373 E76.99355
G0 F3600 X163.77 Y104.967
G1 F1800 X157.532 Y98.729 E77.45568
G0 F3600 X156.938 Y98.729
G1 F1800 X163.77 Y105.561 E77.96182
G0 F3600 X163.77 Y106.155
G1 F1800 X156.344 Y98.729 E78.51196
G0 F3600 X155.75 Y98.729
G1 F1800 X163.77 Y106.749 E79.10611
G0 F3600 X163.77 Y107.343
G1 F1800 X155.156 Y98.729 E79.74426
G0 F3600 X154.562 Y98.729
G1 F1800 X163.77 Y107.937 E80.42642
G0 F3600 X163.77 Y108.53
G1 F1800 X153.968 Y98.729 E81.15254
G0 F3600 X153.374 Y98.729
G1 F1800 X163.77 Y109.124 E81.92268
G0 F3600 X163.77 Y109.718
G1 F1800 X152.78 Y98.729 E82.73681
G0 F3600 X152.186 Y98.729
G1 F1800 X163.77 Y110.312 E83.59496
G0 F3600 X163.77 Y110.906
G1 F1800 X151.592 Y98.729 E84.4971
G0 F3600 X150.998 Y98.729
G1 F1800 X163.77 Y111.5 E85.44326
G0 F3600 X163.77 Y112.094
G1 F1800 X150.404 Y98.729 E86.43342
G0 F3600 X149.81 Y98.729
G1 F1800 X163.77 Y112.688 E87.46758
G0 F3600 X163.77 Y113.282
G1 F1800 X149.216 Y98.729 E88.54575
G0 F3600 X148.622 Y98.729
G1 F1800 X163.77 Y113.876 E89.66792
G0 F3600 X163.77 Y114.47
G1 F1800 X148.028 Y98.729 E90.8341
G0 F3600 X147.434 Y98.729
G1 F1800 X163.77 Y115.064 E92.04429
G0 F3600 X163.77 Y115.658
G1 F1800 X146.84 Y98.729 E93.29848
G0 F3600 X146.246 Y98.729
G1 F1800 X163.77 Y116.252 E94.59668
G0 F3600 X163.77 Y116.846
G1 F1800 X145.652 Y98.729 E95.93888
G0 F3600 X145.058 Y98.729
G1 F1800 X163.77 Y117.44 E97.32509
G0 F3600 X163.77 Y118.034
G1 F1800 X144.464 Y98.729 E98.7553
G0 F3600 X143.87 Y98.729
G1 F1800 X163.77 Y118.628 E100.22952
G0 F3600 X163.77 Y119.222
G1 F1800 X143.276 Y98.729 E101.74774
G0 F3600 X142.682 Y98.729
G1 F1800 X163.77 Y119.816 E103.30997
G0 F3600 X163.77 Y120.41
G1 F1800 X142.088 Y98.729 E104.9162
G0 F3600 X141.494 Y98.729
G1 F1800 X163.77 Y121.004 E106.56644
G0 F3600 X163.77 Y121.598
G1 F1800 X140.9 Y98.729 E108.26069
G0 F3600 X140.306 Y98.729
G1 F1800 X163.77 Y122.192 E109.99894
G0 F3600 X163.77 Y122.786
G1 F1800 X139.712 Y98.729 E111.78119
G0 F3600 X139.119 Y98.729
G1 F1800 X163.77 Y123.38 E113.60742
G0 F3600 X163.77 Y123.974
G1 F1800 X138.525 Y98.729 E115.47765
G0 F3600 X137.931 Y98.729
G1 F1800 X163.77 Y124.568 E117.39188
G0 F3600 X163.77 Y125.162
G1 F1800 X137.337 Y98.729 E119.35012
G0 F3600 X136.743 Y98.729
G1 F1800 X163.77 Y125.756 E121.35237
G0 F3600 X163.77 Y126.35
G1 F1800 X136.149 Y98.729 E123.39862
G0 F3600 X135.555 Y98.729
G1 F1800 X163.77 Y126.944 E125.48888
G0 F3600 X163.77 Y127.538
G1 F1800 X134.961 Y98.729 E127.62314
G0 F3600 X134.367 Y98.729
G1 F1800 X163.77 Y128.131 E129.80137
G0 F3600 X163.77 Y128.725
G1 F1800 X133.773 Y98.729 E132.02361
G0 F3600 X133.179 Y98.729
G1 F1800 X163.77 Y129.319 E134.28985
G0 F3600 X163.77 Y129.913
G1 F1800 X132.585 Y98.729 E136.60009
G0 F3600 X131.991 Y98.729
G1 F1800 X163.77 Y130.507 E138.95435
G0 F3600 X163.77 Y131.101
G1 F1800 X131.397 Y98.729 E141.3526
G0 F3600 X130.803 Y98.729
G1 F1800 X163.77 Y131.695 E143.79487
G0 F3600 X163.77 Y132.289
G1 F1800 X130.209 Y98.729 E146.28113
G0 F3600 X129.615 Y98.729
G1 F1800 X163.77 Y132.883 E148.81141
G0 F3600 X163.77 Y133.477
G1 F1800 X129.021 Y98.729 E151.38569
G0 F3600 X128.427 Y98.729
G1 F1800 X163.77 Y134.071 E154.00397
G0 F3600 X163.77 Y134.665
G1 F1800 X127.833 Y98.729 E156.66626
G0 F3600 X127.239 Y98.729
G1 F1800 X163.77 Y135.259 E159.37256
G0 F3600 X163.77 Y135.853
G1 F1800 X126.645 Y98.729 E162.12286
G0 F3600 X126.051 Y98.729
G1 F1800 X163.77 Y136.447 E164.91716
G0 F3600 X163.77 Y137.041
G1 F1800 X125.457 Y98.729 E167.75548
G0 F3600 X124.863 Y98.729
G1 F1800 X163.77 Y137.635 E170.63779
G0 F3600 X163.77 Y138.229
G1 F1800 X124.269 Y98.729 E173.56411
G0 F3600 X123.675 Y98.729
G1 F1800 X163.77 Y138.823 E176.53444
G0 F3600 X163.77 Y139.417
G1 F1800 X123.081 Y98.729 E179.54878
G0 F3600 X122.487 Y98.729
G1 F1800 X163.77 Y140.011 E182.60711
G0 F3600 X163.77 Y140.605
G1 F1800 X121.893 Y98.729 E185.70946
G0 F3600 X121.299 Y98.729
G1 F1800 X163.77 Y141.199 E188.85581
G0 F3600 X163.77 Y141.793
G1 F1800 X120.705 Y98.729 E192.04616
G0 F3600 X120.111 Y98.729
G1 F1800 X163.77 Y142.387 E195.28052
G0 F3600 X163.77 Y142.981
G1 F1800 X119.518 Y98.729 E198.55885
G0 F3600 X118.924 Y98.729
G1 F1800 X163.77 Y143.575 E201.88118
G0 F3600 X163.77 Y144.169
G1 F1800 X118.33 Y98.729 E205.24752
G0 F3600 X117.736 Y98.729
G1 F1800 X163.77 Y144.763 E208.65787
G0 F3600 X163.77 Y145.357
G1 F1800 X117.142 Y98.729 E212.11222
G0 F3600 X116.548 Y98.729
G1 F1800 X163.77 Y145.951 E215.61057
G0 F3600 X163.77 Y146.545
G1 F1800 X115.954 Y98.729 E219.15293
G0 F3600 X115.36 Y98.729
G1 F1800 X163.77 Y147.139 E222.7393
G0 F3600 X163.77 Y147.732
G1 F1800 X114.766 Y98.729 E226.36964
G0 F3600 X114.172 Y98.729
G1 F1800 X163.77 Y148.326 E230.04398
G0 F3600 X163.77 Y148.92
G1 F1800 X113.578 Y98.729 E233.76232
G0 F3600 X112.984 Y98.729
G1 F1800 X163.77 Y149.514 E237.52467
G0 F3600 X163.77 Y150.108
G1 F1800 X112.39 Y98.729 E241.33103
G0 F3600 X111.796 Y98.729
G1 F1800 X163.77 Y150.702 E245.18139
G0 F3600 X163.77 Y151.296
G1 F1800 X111.202 Y98.729 E249.07576
G0 F3600 X110.608 Y98.729
G1 F1800 X163.77 Y151.89 E253.01413
G0 F3600 X163.77 Y152.484
G1 F1800 X110.014 Y98.729 E256.99651
G0 F3600 X109.42 Y98.729
G1 F1800 X163.77 Y153.078 E261.02289
G0 F3600 X163.77 Y153.672
G1 F1800 X108.826 Y98.729 E265.09328
G0 F3600 X108.232 Y98.729
G1 F1800 X163.77 Y154.266 E269.20767
G0 F3600 X163.77 Y154.86
G1 F1800 X107.638 Y98.729 E273.36607
G0 F3600 X107.044 Y98.729
G1 F1800 X163.77 Y155.454 E277.56848
G0 F3600 X163.77 Y156.048
G1 F1800 X106.45 Y98.729 E281.81489
G0 F3600 X105.856 Y98.729
G1 F1800 X163.398 Y156.27 E286.07775
G0 F3600 X162.804 Y156.27
G1 F1800 X105.262 Y98.729 E290.3406
G0 F3600 X104.668 Y98.729
G1 F1800 X162.21 Y156.27 E294.60346
G0 F3600 X161.616 Y156.27
G1 F1800 X104.074 Y98.729 E298.86632
G0 F3600 X103.48 Y98.729
G1 F1800 X161.022 Y156.27 E303.12917
G0 F3600 X160.428 Y156.27
G1 F1800 X102.886 Y98.729 E307.39203
G0 F3600 X102.292 Y98.729
G1 F1800 X159.834 Y156.27 E311.65489
G0 F3600 X159.24 Y156.27
G1 F1800 X101.698 Y98.729 E315.91774
G0 F3600 X101.104 Y98.729
G1 F1800 X158.646 Y156.27 E320.1806
G0 F3600 X158.052 Y156.27
G1 F1800 X100.51 Y98.729 E324.44346
G0 F3600 X99.917 Y98.729
G1 F1800 X157.458 Y156.27 E328.70628
G0 F3600 X156.864 Y156.27
G1 F1800 X99.323 Y98.729 E332.9691
G0 F3600 X98.729 Y98.729
G1 F1800 X156.27 Y156.27 E337.23192
G0 F3600 X155.676 Y156.27
G1 F1800 X98.135 Y98.729 E341.49474
G0 F3600 X97.541 Y98.729
G1 F1800 X155.082 Y156.27 E345.75756
G0 F3600 X154.488 Y156.27
G1 F1800 X96.947 Y98.729 E350.02038
G0 F3600 X96.353 Y98.729
G1 F1800 X153.894 Y156.27 E354.28319
G0 F3600 X153.3 Y156.27
G1 F1800 X95.759 Y98.729 E358.54601
G0 F3600 X95.165 Y98.729
G1 F1800 X152.706 Y156.27 E362.80883
G0 F3600 X152.112 Y156.27
G1 F1800 X94.571 Y98.729 E367.07165
G0 F3600 X93.977 Y98.729
G1 F1800 X151.518 Y156.27 E371.33447
G0 F3600 X150.924 Y156.27
G1 F1800 X93.383 Y98.729 E375.59729
G0 F3600 X92.789 Y98.729
G1 F1800 X150.33 Y156.27 E379.86011
G0 F3600 X149.736 Y156.27
G1 F1800 X92.195 Y98.729 E384.12293
G0 F3600 X91.601 Y98.729
G1 F1800 X149.142 Y156.27 E388.38575
G0 F3600 X148.548 Y156.27
G1 F1800 X91.007 Y98.729 E392.64857
G0 F3600 X90.413 Y98.729
G1 F1800 X147.955 Y156.27 E396.91143
G0 F3600 X147.361 Y156.27
G1 F1800 X89.819 Y98.729 E401.17429
G0 F3600 X89.225 Y98.729
G1 F1800 X146.767 Y156.27 E405.43714
G0 F3600 X146.173 Y156.27
G1 F1800 X88.631 Y98.729 E409.7
G0 F3600 X88.037 Y98.729
G1 F1800 X145.579 Y156.27 E413.96286
G0 F3600 X144.985 Y156.27
G1 F1800 X87.443 Y98.729 E418.22571
G0 F3600 X86.849 Y98.729
G1 F1800 X144.391 Y156.27 E422.48857
G0 F3600 X143.797 Y156.27
G1 F1800 X86.255 Y98.729 E426.75143
G0 F3600 X86.228 Y99.296
G1 F1800 X143.203 Y156.27 E430.97228
G0 F3600 X142.609 Y156.27
G1 F1800 X86.228 Y99.89 E435.14912
G0 F3600 X86.228 Y100.484
G1 F1800 X142.015 Y156.27 E439.28197
G0 F3600 X141.421 Y156.27
G1 F1800 X86.228 Y101.078 E443.3708
G0 F3600 X86.228 Y101.672
G1 F1800 X140.827 Y156.27 E447.41563
G0 F3600 X140.233 Y156.27
G1 F1800 X86.228 Y102.266 E451.41646
G0 F3600 X86.228 Y102.859
G1 F1800 X139.639 Y156.27 E455.37331
G0 F3600 X139.045 Y156.27
G1 F1800 X86.228 Y103.453 E459.28616
G0 F3600 X86.228 Y104.047
G1 F1800 X138.451 Y156.27 E463.15501
G0 F3600 X137.857 Y156.27
G1 F1800 X86.228 Y104.641 E466.97985
G0 F3600 X86.228 Y105.235
G1 F1800 X137.263 Y156.27 E470.76068
G0 F3600 X136.669 Y156.27
G1 F1800 X86.228 Y105.829 E474.49751
G0 F3600 X86.228 Y106.423
G1 F1800 X136.075 Y156.27 E478.19034
G0 F3600 X135.481 Y156.27
G1 F1800 X86.228 Y107.017 E481.83915
G0 F3600 X86.228 Y107.611
G1 F1800 X134.887 Y156.27 E485.44397
G0 F3600 X134.293 Y156.27
G1 F1800 X86.228 Y108.205 E489.00478
G0 F3600 X86.228 Y108.799
G1 F1800 X133.699 Y156.27 E492.52158
G0 F3600 X133.105 Y156.27
G1 F1800 X86.228 Y109.393 E495.99437
G0 F3600 X86.228 Y109.987
G1 F1800 X132.511 Y156.27 E499.42317
G0 F3600 X131.917 Y156.27
G1 F1800 X86.228 Y110.581 E502.80795
G0 F3600 X86.228 Y111.175
G1 F1800 X131.323 Y156.27 E506.14873
G0 F3600 X130.729 Y156.27
G1 F1800 X86.228 Y111.769 E509.44551
G0 F3600 X86.228 Y112.363
G1 F1800 X130.135 Y156.27 E512.69828
G0 F3600 X129.541 Y156.27
G1 F1800 X86.228 Y112.957 E515.90704
G0 F3600 X86.228 Y113.551
G1 F1800 X128.947 Y156.27 E519.0718
G0 F3600 X128.354 Y156.27
G1 F1800 X86.228 Y114.145 E522.19259
G0 F3600 X86.228 Y114.739
G1 F1800 X127.76 Y156.27 E525.26938
G0 F3600 X127.166 Y156.27
G1 F1800 X86.228 Y115.333 E528.30216
G0 F3600 X86.228 Y115.927
G1 F1800 X126.572 Y156.27 E531.29093
G0 F3600 X125.978 Y156.27
G1 F1800 X86.228 Y116.521 E534.2357
G0 F3600 X86.228 Y117.115
G1 F1800 X125.384 Y156.27 E537.13646
G0 F3600 X124.79 Y156.27
G1 F1800 X86.228 Y117.709 E539.99322
G0 F3600 X86.228 Y118.303
G1 F1800 X124.196 Y156.27 E542.80597
G0 F3600 X123.602 Y156.27
G1 F1800 X86.228 Y118.897 E545.57472
G0 F3600 X86.228 Y119.491
G1 F1800 X123.008 Y156.27 E548.29946
G0 F3600 X122.414 Y156.27
G1 F1800 X86.228 Y120.085 E550.9802
G0 F3600 X86.228 Y120.679
G1 F1800 X121.82 Y156.27 E553.61693
G0 F3600 X121.226 Y156.27
G1 F1800 X86.228 Y121.273 E556.20966
G0 F3600 X86.228 Y121.867
G1 F1800 X120.632 Y156.27 E558.75838
G0 F3600 X120.038 Y156.27
G1 F1800 X86.228 Y122.46 E561.26313
G0 F3600 X86.228 Y123.054
G1 F1800 X119.444 Y156.27 E563.72388
G0 F3600 X118.85 Y156.27
G1 F1800 X86.228 Y123.648 E566.14062
G0 F3600 X86.228 Y124.242
G1 F1800 X118.256 Y156.27 E568.51335
G0 F3600 X117.662 Y156.27
G1 F1800 X86.228 Y124.836 E570.84208
G0 F3600 X86.228 Y125.43
G1 F1800 X117.068 Y156.27 E573.12681
G0 F3600 X116.474 Y156.27
G1 F1800 X86.228 Y126.024 E575.36753
G0 F3600 X86.228 Y126.618
G1 F1800 X115.88 Y156.27 E577.56424
G0 F3600 X115.286 Y156.27
G1 F1800 X86.228 Y127.212 E579.71695
G0 F3600 X86.228 Y127.806
G1 F1800 X114.692 Y156.27 E581.82565
G0 F3600 X114.098 Y156.27
G1 F1800 X86.228 Y128.4 E583.89035
G0 F3600 X86.228 Y128.994
G1 F1800 X113.504 Y156.27 E585.91105
G0 F3600 X112.91 Y156.27
G1 F1800 X86.228 Y129.588 E587.88773
G0 F3600 X86.228 Y130.182
