;FLAVOR:Marlin
;TIME:6115
;Filament used: 3.7847m
;Layer height: 0.1
;MINX:50.521
;MINY:83.532
;MINZ:0.3
;MAXX:199.479
;MAXY:137.472
;MAXZ:7
;Generated with Cura_SteamEngine 4.13.1
M140 S60
M105
M190 S60
M104 S200
M105
M109 S200
M82 ;absolute extrusion mode
G21 ;metric values
G90 ;absolute positioning
M82 ;set extruder to absolute mode
M107 ;start with the fan off
G28 X0 Y0 ;move X/Y to min endstops
M300 S1318 P266
G28 Z0 ;move Z to min endstops
G0 Z0.2
G92 E0 ;zero the extruded length
G1 X40 E25 F400 ; Extrude 25mm of filament in a 4cm line. Reduce speed (F) if you have a nozzle smaller than 0.4mm!
G92 E0 ;zero the extruded length again
G1 E-1 F500 ; Retract a little
G1 X80 F4000 ; Quickly wipe away from the filament line
M117 ; Printing…
G5
G92 E0
G92 E0
G1 F1500 E-6.5
;LAYER_COUNT:58
;LAYER:0
M107
G1 F600 Z1.3
G0 F3600 X57.887 Y85.908 Z1.3
;TYPE:SKIRT
G1 F600 Z0.3
G1 F1500 E0
G1 F1800 X58.39 Y85.585 E0.03131
G1 X58.931 Y85.333 E0.06258
G1 X59.567 Y85.127 E0.0976
G1 X64.26 Y83.867 E0.35215
G1 X64.977 Y83.685 E0.3909
G1 X65.565 Y83.577 E0.42222
G1 X65.994 Y83.549 E0.44474
G1 X66.973 Y83.532 E0.49603
G1 X183.26 Y83.532 E6.58769
G1 X183.942 Y83.542 E6.62342
G1 X184.537 Y83.591 E6.65469
G1 X184.959 Y83.675 E6.67723
G1 X185.922 Y83.916 E6.72924
G1 X190.006 Y85.011 E6.95073
G1 X190.66 Y85.196 E6.98634
G1 X191.452 Y85.504 E7.03085
G1 X191.968 Y85.806 E7.06217
G1 X192.523 Y86.253 E7.0995
G1 X192.869 Y86.582 E7.12451
G1 X196.25 Y89.964 E7.37503
G1 X196.721 Y90.45 E7.41048
G1 X197.107 Y90.906 E7.44177
G1 X197.429 Y91.41 E7.47311
G1 X197.681 Y91.952 E7.50442
G1 X197.881 Y92.57 E7.53844
G1 X197.92 Y92.707 E7.54591
G1 X199.16 Y97.333 E7.79679
G1 X199.326 Y97.989 E7.83224
G1 X199.434 Y98.577 E7.86356
G1 X199.462 Y99.006 E7.88608
G1 X199.479 Y99.984 E7.93732
G1 X199.479 Y121.253 E9.05149
G1 X199.469 Y121.935 E9.08722
G1 X199.42 Y122.53 E9.11849
G1 X199.336 Y122.952 E9.14103
G1 X199.095 Y123.915 E9.19304
G1 X198 Y128.001 E9.41463
G1 X197.813 Y128.661 E9.45057
G1 X197.612 Y129.223 E9.48183
G1 X197.337 Y129.754 E9.51316
G1 X196.995 Y130.244 E9.54446
G1 X196.522 Y130.766 E9.58136
G1 X196.429 Y130.862 E9.58836
G1 X193.062 Y134.228 E9.83776
G1 X192.569 Y134.708 E9.87381
G1 X192.114 Y135.095 E9.9051
G1 X191.611 Y135.418 E9.93641
G1 X191.07 Y135.671 E9.9677
G1 X190.306 Y135.913 E10.00968
G1 X185.738 Y137.138 E10.25743
G1 X185.024 Y137.319 E10.29602
G1 X184.436 Y137.427 E10.32733
G1 X184.006 Y137.455 E10.34991
G1 X183.027 Y137.472 E10.4012
G1 X66.74 Y137.472 E16.49286
G1 X66.059 Y137.462 E16.52854
G1 X65.464 Y137.413 E16.55981
G1 X65.043 Y137.329 E16.5823
G1 X64.079 Y137.088 E16.63435
G1 X59.987 Y135.992 E16.85627
G1 X59.338 Y135.808 E16.89161
G1 X58.548 Y135.5 E16.93602
G1 X58.032 Y135.198 E16.96734
G1 X57.477 Y134.751 E17.00467
G1 X57.131 Y134.422 E17.02968
G1 X53.753 Y131.043 E17.27997
G1 X53.281 Y130.557 E17.31546
G1 X52.895 Y130.102 E17.34672
G1 X52.572 Y129.598 E17.37808
G1 X52.319 Y129.057 E17.40937
G1 X52.115 Y128.421 E17.44435
G1 X52.08 Y128.297 E17.4511
G1 X50.84 Y123.673 E17.70189
G1 X50.674 Y123.018 E17.73729
G1 X50.566 Y122.43 E17.7686
G1 X50.538 Y121.999 E17.79123
G1 X50.521 Y121.02 E17.84252
G1 X50.521 Y99.751 E18.95669
G1 X50.531 Y99.069 E18.99242
G1 X50.58 Y98.474 E19.0237
G1 X50.664 Y98.052 E19.04624
G1 X50.905 Y97.09 E19.09819
G1 X52.003 Y92.992 E19.32043
G1 X52.186 Y92.346 E19.3556
G1 X52.387 Y91.783 E19.38692
G1 X52.661 Y91.252 E19.41822
G1 X53.004 Y90.762 E19.44955
G1 X53.473 Y90.244 E19.48616
G1 X53.571 Y90.142 E19.49357
G1 X56.959 Y86.756 E19.74449
G1 X57.432 Y86.296 E19.77905
G1 X57.887 Y85.908 E19.81038
G0 F3600 X58.159 Y86.23
G1 F1800 X58.641 Y85.927 E19.8402
G1 X59.382 Y85.622 E19.88218
G1 X59.805 Y85.496 E19.9053
G1 X64.424 Y84.258 E20.1558
G1 X65.08 Y84.092 E20.19125
G1 X65.64 Y83.991 E20.22106
G1 X66.002 Y83.969 E20.24006
G1 X66.973 Y83.952 E20.29093
G1 X183.253 Y83.952 E26.38223
G1 X183.935 Y83.962 E26.41796
G1 X184.502 Y84.011 E26.44777
G1 X184.857 Y84.083 E26.46674
G1 X185.813 Y84.322 E26.51836
G1 X189.891 Y85.415 E26.73953
G1 X190.545 Y85.6 E26.77513
G1 X191.264 Y85.88 E26.81555
G1 X191.754 Y86.169 E26.84535
G1 X192.235 Y86.559 E26.87779
G1 X192.572 Y86.879 E26.90214
G1 X195.948 Y90.256 E27.15228
G1 X196.419 Y90.742 E27.18773
G1 X196.786 Y91.178 E27.21759
G1 X197.087 Y91.66 E27.24735
G1 X197.387 Y92.388 E27.2886
G1 X197.515 Y92.816 E27.312
G1 X198.753 Y97.436 E27.56256
G1 X198.919 Y98.092 E27.59801
G1 X199.02 Y98.652 E27.62782
G1 X199.042 Y99.014 E27.64681
G1 X199.059 Y99.984 E27.69763
G1 X199.059 Y121.246 E28.81144
G1 X199.049 Y121.928 E28.84717
G1 X199 Y122.495 E28.87698
G1 X198.928 Y122.85 E28.89596
G1 X198.689 Y123.806 E28.94758
G1 X197.596 Y127.886 E29.16884
G1 X197.409 Y128.546 E29.20478
G1 X197.215 Y129.081 E29.23459
G1 X196.949 Y129.584 E29.2644
G1 X196.46 Y130.219 E29.30638
G1 X196.132 Y130.565 E29.33136
G1 X192.769 Y133.927 E29.58046
G1 X192.276 Y134.407 E29.61651
G1 X191.842 Y134.774 E29.64628
G1 X191.36 Y135.077 E29.6761
G1 X190.593 Y135.391 E29.71952
G1 X190.094 Y135.536 E29.74674
G1 X185.576 Y136.746 E29.99176
G1 X184.921 Y136.912 E30.02715
G1 X184.361 Y137.013 E30.05696
G1 X183.998 Y137.035 E30.07601
G1 X183.027 Y137.052 E30.12689
G1 X66.747 Y137.052 E36.21818
G1 X66.066 Y137.042 E36.25386
G1 X65.499 Y136.993 E36.28367
G1 X65.145 Y136.922 E36.30258
G1 X64.187 Y136.682 E36.35432
G1 X60.101 Y135.587 E36.57592
G1 X59.452 Y135.403 E36.61125
G1 X58.736 Y135.124 E36.65151
G1 X58.246 Y134.835 E36.68131
G1 X57.765 Y134.445 E36.71375
G1 X57.428 Y134.125 E36.73809
G1 X54.055 Y130.751 E36.98801
G1 X53.583 Y130.265 E37.0235
G1 X53.216 Y129.83 E37.05332
G1 X52.914 Y129.348 E37.08311
G1 X52.608 Y128.604 E37.12525
G1 X52.485 Y128.188 E37.14798
G1 X51.247 Y123.57 E37.39843
G1 X51.081 Y122.915 E37.43383
G1 X50.98 Y122.355 E37.46364
G1 X50.958 Y121.992 E37.48269
G1 X50.941 Y121.02 E37.53361
G1 X50.941 Y99.758 E38.64742
G1 X50.951 Y99.076 E38.68315
G1 X51 Y98.509 E38.71296
G1 X51.072 Y98.154 E38.73194
G1 X51.311 Y97.198 E38.78356
G1 X52.407 Y93.106 E39.00547
G1 X52.59 Y92.46 E39.04064
G1 X52.783 Y91.925 E39.07044
G1 X53.05 Y91.422 E39.10027
G1 X53.534 Y90.792 E39.14189
G1 X53.868 Y90.439 E39.16734
G1 X57.251 Y87.057 E39.41793
G1 X57.724 Y86.597 E39.45249
G1 X58.159 Y86.23 E39.48231
G0 F3600 X58.43 Y86.552
G1 F1800 X58.89 Y86.271 E39.51054
G1 X59.503 Y86.024 E39.54516
G1 X59.914 Y85.902 E39.56762
G1 X64.528 Y84.665 E39.81786
G1 X65.184 Y84.499 E39.85331
G1 X65.714 Y84.406 E39.8815
G1 X66.009 Y84.389 E39.89698
G1 X66.973 Y84.372 E39.94748
G1 X183.247 Y84.372 E46.03846
G1 X183.929 Y84.382 E46.07419
G1 X184.466 Y84.43 E46.10244
G1 X184.755 Y84.49 E46.1179
G1 X185.704 Y84.728 E46.16915
G1 X189.777 Y85.819 E46.39004
G1 X190.431 Y86.004 E46.42564
G1 X191.076 Y86.255 E46.4619
G1 X191.539 Y86.531 E46.49013
G1 X191.946 Y86.864 E46.51768
G1 X192.275 Y87.176 E46.54143
G1 X195.647 Y90.549 E46.79128
G1 X196.118 Y91.035 E46.82673
G1 X196.463 Y91.448 E46.85492
G1 X196.743 Y91.908 E46.88313
G1 X196.985 Y92.51 E46.91712
G1 X197.109 Y92.925 E46.93981
G1 X198.346 Y97.54 E47.1901
G1 X198.512 Y98.196 E47.22555
G1 X198.605 Y98.726 E47.25373
G1 X198.622 Y99.021 E47.26921
G1 X198.639 Y99.984 E47.31967
G1 X198.639 Y121.24 E48.43316
G1 X198.629 Y121.922 E48.46889
G1 X198.581 Y122.459 E48.49713
G1 X198.521 Y122.748 E48.51259
G1 X198.283 Y123.697 E48.56384
G1 X197.192 Y127.772 E48.78483
G1 X197.005 Y128.432 E48.82076
G1 X196.82 Y128.937 E48.84894
G1 X196.562 Y129.41 E48.87716
G1 X196.154 Y129.931 E48.91183
G1 X195.835 Y130.268 E48.93614
G1 X192.476 Y133.626 E49.18494
G1 X191.983 Y134.106 E49.22099
G1 X191.571 Y134.452 E49.24917
G1 X191.111 Y134.733 E49.27741
G1 X190.474 Y134.988 E49.31335
G1 X189.985 Y135.13 E49.34003
G1 X185.473 Y136.339 E49.58473
G1 X184.818 Y136.505 E49.62012
G1 X184.287 Y136.598 E49.64836
G1 X183.991 Y136.615 E49.66389
G1 X183.027 Y136.632 E49.7144
G1 X66.753 Y136.632 E55.80538
G1 X66.072 Y136.622 E55.84106
G1 X65.535 Y136.574 E55.8693
G1 X65.246 Y136.514 E55.88476
G1 X64.296 Y136.276 E55.93607
G1 X60.216 Y135.183 E56.15733
G1 X59.567 Y134.999 E56.19267
G1 X58.924 Y134.749 E56.22881
G1 X58.461 Y134.473 E56.25705
G1 X58.054 Y134.14 E56.28459
G1 X57.725 Y133.828 E56.30835
G1 X54.356 Y130.458 E56.55797
G1 X53.884 Y129.972 E56.59346
G1 X53.538 Y129.559 E56.62168
G1 X53.258 Y129.099 E56.64989
G1 X53.01 Y128.484 E56.68463
G1 X52.891 Y128.079 E56.70674
G1 X51.654 Y123.467 E56.95688
G1 X51.488 Y122.812 E56.99228
G1 X51.395 Y122.281 E57.02052
G1 X51.378 Y121.985 E57.03605
G1 X51.361 Y121.02 E57.08661
G1 X51.361 Y99.764 E58.2001
G1 X51.371 Y99.082 E58.23583
G1 X51.419 Y98.545 E58.26407
G1 X51.479 Y98.256 E58.27953
G1 X51.717 Y97.307 E58.33078
G1 X52.811 Y93.221 E58.55237
G1 X52.994 Y92.575 E58.58754
G1 X53.179 Y92.069 E58.61576
G1 X53.437 Y91.596 E58.64399
G1 X53.84 Y91.08 E58.67828
G1 X54.165 Y90.736 E58.70308
G1 X57.544 Y87.358 E58.95337
G1 X58.017 Y86.898 E58.98793
G1 X58.43 Y86.552 E59.01615
G0 F3600 X58.7 Y86.875
G1 F1800 X59.135 Y86.617 E59.04265
G1 X59.624 Y86.426 E59.07015
G1 X60.023 Y86.308 E59.09194
G1 X64.631 Y85.072 E59.34186
G1 X65.287 Y84.906 E59.37731
G1 X66.017 Y84.809 E59.41589
G1 X66.973 Y84.792 E59.46598
G1 X183.241 Y84.792 E65.55664
G1 X183.923 Y84.802 E65.59237
G1 X184.654 Y84.898 E65.631
G1 X185.596 Y85.133 E65.68185
G1 X189.663 Y86.223 E65.90242
G1 X190.317 Y86.408 E65.93803
G1 X190.889 Y86.631 E65.97019
G1 X191.322 Y86.892 E65.99667
G1 X191.913 Y87.41 E66.03784
G1 X195.31 Y90.805 E66.28943
G1 X195.816 Y91.327 E66.32751
G1 X196.139 Y91.717 E66.35404
G1 X196.396 Y92.153 E66.38055
G1 X196.583 Y92.631 E66.40744
G1 X196.703 Y93.034 E66.42946
G1 X197.939 Y97.643 E66.67943
G1 X198.105 Y98.299 E66.71488
G1 X198.202 Y99.029 E66.75346
G1 X198.219 Y99.984 E66.80349
G1 X198.219 Y121.234 E67.91667
G1 X198.209 Y121.916 E67.9524
G1 X198.113 Y122.647 E67.99102
G1 X197.878 Y123.589 E68.04188
G1 X196.787 Y127.657 E68.26251
G1 X196.6 Y128.317 E68.29845
G1 X196.424 Y128.792 E68.32498
G1 X196.176 Y129.233 E68.35149
G1 X195.848 Y129.643 E68.37899
G1 X195.538 Y129.971 E68.40263
G1 X192.183 Y133.325 E68.65115
G1 X191.69 Y133.805 E68.68719
G1 X191.301 Y134.128 E68.71368
G1 X190.865 Y134.387 E68.74024
G1 X190.356 Y134.585 E68.76885
G1 X189.877 Y134.725 E68.795
G1 X185.37 Y135.932 E69.03941
G1 X184.715 Y136.098 E69.07481
G1 X183.983 Y136.195 E69.11349
G1 X183.027 Y136.212 E69.16358
G1 X66.759 Y136.212 E75.25424
G1 X66.078 Y136.202 E75.28992
G1 X65.348 Y136.107 E75.32849
G1 X64.405 Y135.871 E75.37941
G1 X60.33 Y134.779 E75.60041
G1 X59.681 Y134.595 E75.63574
G1 X59.111 Y134.373 E75.66779
G1 X58.678 Y134.112 E75.69427
G1 X58.087 Y133.594 E75.73544
G1 X54.69 Y130.199 E75.98703
G1 X54.185 Y129.679 E76.025
G1 X53.862 Y129.289 E76.05153
G1 X53.605 Y128.854 E76.07799
G1 X53.413 Y128.364 E76.10556
G1 X53.297 Y127.97 E76.12708
G1 X52.061 Y123.364 E76.3769
G1 X51.895 Y122.709 E76.4123
G1 X51.798 Y121.977 E76.45098
G1 X51.781 Y121.02 E76.50112
G1 X51.781 Y99.77 E77.61429
G1 X51.791 Y99.088 E77.65002
G1 X51.887 Y98.357 E77.68864
G1 X52.122 Y97.416 E77.73945
G1 X53.216 Y93.335 E77.96078
G1 X53.399 Y92.689 E77.99595
G1 X53.575 Y92.214 E78.02249
G1 X53.823 Y91.773 E78.04899
G1 X54.147 Y91.367 E78.0762
G1 X54.462 Y91.033 E78.10025
G1 X57.837 Y87.659 E78.35025
G1 X58.31 Y87.199 E78.38481
G1 X58.7 Y86.875 E78.41137
G1 F1500 E71.91137
G1 F600 Z1.3
;MESH:screen-topper-v3.stl
G0 F3600 X92.322 Y129.192 Z1.3
;TYPE:WALL-INNER
G1 F600 Z0.3
G1 F1500 E78.41137
G1 F1800 X92.757 Y129.235 E78.43427
G1 X93.192 Y129.192 E78.45717
G1 X93.612 Y129.065 E78.48015
G1 X93.998 Y128.858 E78.5031
G1 X94.335 Y128.58 E78.52598
G1 X94.613 Y128.243 E78.54887
G1 X94.82 Y127.857 E78.57181
G1 X94.879 Y127.662 E78.58249
G1 X94.879 Y128.243 E78.59708
G1 X94.879 Y130.007 E78.68949
G1 X175.139 Y130.007 E82.89388
G1 X175.139 Y128.242 E82.98634
G1 X175.139 Y127.658 E83.01693
G1 X175.199 Y127.855
G1 X175.404 Y128.242 E83.02844
G1 X175.683 Y128.581 E83.05144
G1 X176.022 Y128.859 E83.07441
G1 X176.408 Y129.065 E83.09733
G1 X176.827 Y129.192 E83.12026
G1 X177.262 Y129.235 E83.14316
G1 X177.697 Y129.192 E83.16606
G1 X178.117 Y129.065 E83.18904
G1 X178.503 Y128.858 E83.21199
G1 X178.84 Y128.58 E83.23487
G1 X179.118 Y128.243 E83.25776
G1 X179.325 Y127.857 E83.2807
G1 X179.452 Y127.437 E83.30369
G1 X179.495 Y127.002 E83.32659
G1 X179.452 Y126.567 E83.34949
G1 X179.325 Y126.147 E83.37247
G1 X179.118 Y125.761 E83.39542
G1 X178.84 Y125.424 E83.4183
G1 X178.503 Y125.146 E83.44119
G1 X178.117 Y124.939 E83.46413
G1 X177.697 Y124.812 E83.48712
G1 X177.262 Y124.769 E83.51001
G1 X176.827 Y124.812 E83.53291
G1 X176.408 Y124.939 E83.55585
G1 X176.022 Y125.145 E83.57877
G1 X175.683 Y125.423 E83.60173
G1 X175.404 Y125.762 E83.62473
G1 X175.199 Y126.149 E83.64768
G1 X175.139 Y126.346 E83.65846
G1 X175.139 Y125.762 E83.67315
G1 X175.139 Y119.632 E83.99427
G1 X177.639 Y119.632 E84.12523
G1 X177.639 Y101.372 E85.08177
G1 X175.139 Y101.372 E85.21274
G1 X175.139 Y95.24 E85.53396
G1 X175.139 Y94.656 E85.56455
G1 X175.199 Y94.853
G1 X175.404 Y95.24 E85.57606
G1 X175.683 Y95.579 E85.59906
G1 X176.022 Y95.857 E85.62202
G1 X176.408 Y96.063 E85.64494
G1 X176.827 Y96.19 E85.66788
G1 X177.262 Y96.233 E85.69078
G1 X177.697 Y96.19 E85.71368
G1 X178.117 Y96.063 E85.73666
G1 X178.503 Y95.856 E85.75961
G1 X178.84 Y95.578 E85.78249
G1 X179.118 Y95.241 E85.80538
G1 X179.325 Y94.855 E85.82832
G1 X179.452 Y94.435 E85.85131
G1 X179.495 Y94 E85.87421
G1 X179.452 Y93.565 E85.8971
G1 X179.325 Y93.145 E85.92009
G1 X179.118 Y92.759 E85.94303
G1 X178.84 Y92.422 E85.96592
G1 X178.503 Y92.144 E85.9888
G1 X178.117 Y91.937 E86.01175
G1 X177.697 Y91.81 E86.03473
G1 X177.262 Y91.767 E86.05763
G1 X176.827 Y91.81 E86.08053
G1 X176.408 Y91.937 E86.10347
G1 X176.022 Y92.143 E86.12639
G1 X175.683 Y92.421 E86.14935
G1 X175.404 Y92.76 E86.17235
G1 X175.199 Y93.147 E86.19529
G1 X175.139 Y93.344 E86.20608
G1 X175.139 Y92.76 E86.22077
G1 X175.139 Y90.997 E86.31312
G1 X94.879 Y90.997 E90.51752
G1 X94.879 Y92.759 E90.60982
G1 X94.879 Y93.34 E90.64026
G1 X94.82 Y93.145
G1 X94.613 Y92.759 E90.65181
G1 X94.335 Y92.422 E90.67469
G1 X93.998 Y92.144 E90.69758
G1 X93.612 Y91.937 E90.72052
G1 X93.192 Y91.81 E90.74351
G1 X92.757 Y91.767 E90.7664
G1 X92.322 Y91.81 E90.7893
G1 X91.902 Y91.937 E90.81229
G1 X91.516 Y92.144 E90.83523
G1 X91.179 Y92.422 E90.85812
G1 X90.901 Y92.759 E90.881
G1 X90.694 Y93.145 E90.90395
G1 X90.567 Y93.565 E90.92693
G1 X90.524 Y94 E90.94983
G1 X90.567 Y94.435 E90.97273
G1 X90.694 Y94.855 E90.99572
G1 X90.901 Y95.241 E91.01866
G1 X91.179 Y95.578 E91.04154
G1 X91.516 Y95.856 E91.06443
G1 X91.902 Y96.063 E91.08737
G1 X92.322 Y96.19 E91.11036
G1 X92.757 Y96.233 E91.13326
G1 X93.192 Y96.19 E91.15616
G1 X93.612 Y96.063 E91.17914
G1 X93.998 Y95.856 E91.20209
G1 X94.335 Y95.578 E91.22497
G1 X94.613 Y95.241 E91.24786
G1 X94.82 Y94.855 E91.2708
G1 X94.879 Y94.66 E91.28147
G1 X94.879 Y95.241 E91.29607
G1 X94.879 Y125.761 E92.89485
G1 X94.879 Y126.342 E92.92528
G1 X94.82 Y126.147
G1 X94.613 Y125.761 E92.93683
G1 X94.335 Y125.424 E92.95972
G1 X93.998 Y125.146 E92.9826
G1 X93.612 Y124.939 E93.00555
G1 X93.192 Y124.812 E93.02853
G1 X92.757 Y124.769 E93.05143
G1 X92.322 Y124.812 E93.07433
G1 X91.902 Y124.939 E93.09732
G1 X91.516 Y125.146 E93.12026
G1 X91.179 Y125.424 E93.14315
G1 X90.901 Y125.761 E93.16603
G1 X90.694 Y126.147 E93.18898
G1 X90.567 Y126.567 E93.21196
G1 X90.524 Y127.002 E93.23486
G1 X90.567 Y127.437 E93.25776
G1 X90.694 Y127.857 E93.28074
G1 X90.901 Y128.243 E93.30369
G1 X91.179 Y128.58 E93.32657
G1 X91.516 Y128.858 E93.34946
G1 X91.902 Y129.065 E93.3724
G1 X92.322 Y129.192 E93.39539
G0 F3600 X92.404 Y128.778
;TYPE:WALL-OUTER
G1 F1800 X92.757 Y128.813 E93.41397
G1 X93.11 Y128.778 E93.43255
G1 X93.45 Y128.675 E93.45116
G1 X93.763 Y128.507 E93.46977
G1 X94.037 Y128.282 E93.48835
G1 X94.262 Y128.008 E93.50692
G1 X94.43 Y127.695 E93.52553
G1 X94.533 Y127.355 E93.54414
G1 X94.568 Y127.002 E93.56272
G1 X94.533 Y126.649 E93.5813
G1 X94.43 Y126.309 E93.59991
G1 X94.262 Y125.996 E93.61852
G1 X94.037 Y125.722 E93.63709
G1 X93.763 Y125.497 E93.65567
G1 X93.45 Y125.329 E93.67428
G1 X93.11 Y125.226 E93.69289
