;FLAVOR:Marlin
;TIME:2529
;Filament used: 1.28204m
;Layer height: 0.1
;MINX:71.37
;MINY:101.37
;MINZ:0.3
;MAXX:178.63
;MAXY:153.63
;MAXZ:4
;Generated with Cura_SteamEngine 4.13.1
M140 S60
M105
M190 S60
M104 S200
M105
M109 S200
M82 ;absolute extrusion mode
G21 ;metric values
G90 ;absolute positioning
M82 ;set extruder to absolute mode
M107 ;start with the fan off
G28 X0 Y0 ;move X/Y to min endstops
M300 S1318 P266
G28 Z0 ;move Z to min endstops
G0 Z0.2
G92 E0 ;zero the extruded length
G1 X40 E25 F400 ; Extrude 25mm of filament in a 4cm line. Reduce speed (F) if you have a nozzle smaller than 0.4mm!
G92 E0 ;zero the extruded length again
G1 E-1 F500 ; Retract a little
G1 X80 F4000 ; Quickly wipe away from the filament line
M117 ; Printing…
G5
G92 E0
G92 E0
G1 F1500 E-6.5
;LAYER_COUNT:28
;LAYER:0
M107
G1 F600 Z1.3
G0 F3600 X72.765 Y102.155 Z1.3
;TYPE:SKIRT
G1 F600 Z0.3
G1 F1500 E0
G1 F1800 X73.212 Y101.855 E0.0282
G1 X73.699 Y101.624 E0.05644
G1 X74.214 Y101.467 E0.08464
G1 X74.907 Y101.38 E0.12123
G1 X75.33 Y101.37 E0.14339
G1 X174.345 Y101.37 E5.33027
G1 X175.043 Y101.38 E5.36683
G1 X175.579 Y101.428 E5.39502
G1 X176.103 Y101.554 E5.42326
G1 X176.602 Y101.757 E5.45148
G1 X177.065 Y102.031 E5.47966
G1 X177.483 Y102.371 E5.50789
G1 X177.846 Y102.769 E5.5361
G1 X178.146 Y103.216 E5.5643
G1 X178.377 Y103.702 E5.59249
G1 X178.533 Y104.218 E5.62073
G1 X178.62 Y104.908 E5.65716
G1 X178.63 Y105.33 E5.67928
G1 X178.63 Y149.309 E7.9831
G1 X178.621 Y150.036 E8.02119
G1 X178.574 Y150.572 E8.04938
G1 X178.449 Y151.096 E8.0776
G1 X178.247 Y151.596 E8.10584
G1 X177.974 Y152.06 E8.13405
G1 X177.635 Y152.478 E8.16224
G1 X177.238 Y152.842 E8.19045
G1 X176.792 Y153.143 E8.21864
G1 X176.305 Y153.375 E8.2469
G1 X175.79 Y153.532 E8.2751
G1 X175.093 Y153.62 E8.3119
G1 X174.67 Y153.63 E8.33407
G1 X75.66 Y153.63 E13.52068
G1 X74.962 Y153.621 E13.55725
G1 X74.426 Y153.574 E13.58543
G1 X73.902 Y153.448 E13.61367
G1 X73.403 Y153.246 E13.64187
G1 X72.939 Y152.973 E13.67007
G1 X72.521 Y152.634 E13.69826
G1 X72.157 Y152.237 E13.72648
G1 X71.856 Y151.79 E13.75471
G1 X71.625 Y151.304 E13.78289
G1 X71.468 Y150.789 E13.8111
G1 X71.38 Y150.089 E13.84806
G1 X71.37 Y149.658 E13.87064
G1 X71.37 Y105.625 E16.1773
G1 X71.379 Y104.96 E16.21213
G1 X71.427 Y104.423 E16.24038
G1 X71.553 Y103.9 E16.26856
G1 X71.755 Y103.401 E16.29676
G1 X72.028 Y102.937 E16.32496
G1 X72.368 Y102.519 E16.35319
G1 X72.765 Y102.155 E16.3814
G0 F3600 X73.171 Y102.378
G1 F1800 X73.607 Y102.121 E16.40791
G1 X74.079 Y101.937 E16.43445
G1 X74.574 Y101.829 E16.46099
G1 X75.24 Y101.791 E16.49594
G1 X174.339 Y101.79 E21.68721
G1 X175.037 Y101.8 E21.72378
G1 X175.541 Y101.847 E21.75029
G1 X176.032 Y101.973 E21.77685
G1 X176.496 Y102.175 E21.80336
G1 X176.923 Y102.447 E21.82988
G1 X177.302 Y102.782 E21.85638
G1 X177.624 Y103.174 E21.88295
G1 X177.88 Y103.611 E21.90948
G1 X178.064 Y104.082 E21.93597
G1 X178.172 Y104.577 E21.96251
G1 X178.209 Y105.24 E21.9973
G1 X178.21 Y149.304 E24.30558
G1 X178.201 Y150.031 E24.34366
G1 X178.155 Y150.535 E24.37018
G1 X178.03 Y151.026 E24.39672
G1 X177.829 Y151.491 E24.42325
G1 X177.558 Y151.918 E24.44975
G1 X177.223 Y152.298 E24.47628
G1 X176.832 Y152.62 E24.50282
G1 X176.396 Y152.877 E24.52933
G1 X175.925 Y153.062 E24.55584
G1 X175.43 Y153.171 E24.58239
G1 X174.76 Y153.209 E24.61754
G1 X75.666 Y153.21 E29.80856
G1 X74.968 Y153.201 E29.84512
G1 X74.463 Y153.154 E29.87169
G1 X73.973 Y153.029 E29.89818
G1 X73.508 Y152.828 E29.92472
G1 X73.08 Y152.557 E29.95126
G1 X72.701 Y152.222 E29.97775
G1 X72.379 Y151.831 E30.00429
G1 X72.122 Y151.395 E30.0308
G1 X71.937 Y150.923 E30.05736
G1 X71.829 Y150.429 E30.08385
G1 X71.791 Y149.745 E30.11973
G1 X71.79 Y105.631 E32.43063
G1 X71.799 Y104.966 E32.46547
G1 X71.846 Y104.461 E32.49204
G1 X71.972 Y103.971 E32.51854
G1 X72.173 Y103.506 E32.54508
G1 X72.444 Y103.079 E32.57157
G1 X72.78 Y102.699 E32.59815
G1 X73.171 Y102.378 E32.62465
G1 F1500 E26.12465
G1 F600 Z1.3
;MESH:screen-toppper.stl
G0 F3600 X81.834 Y146.339 Z1.3
;TYPE:WALL-INNER
G1 F600 Z0.3
G1 F1500 E32.62465
G1 F1800 X82.249 Y146.38 E32.64649
G1 X82.665 Y146.339 E32.66839
G1 X83.064 Y146.218 E32.69023
G1 X83.434 Y146.022 E32.71217
G1 X83.758 Y145.755 E32.73416
G1 X84.027 Y145.428 E32.75634
G1 X84.221 Y145.056 E32.77832
G1 X84.342 Y144.664 E32.79981
G1 X84.382 Y144.246 E32.8218
G1 X84.34 Y143.825 E32.84397
G1 X84.22 Y143.43 E32.86559
G1 X84.023 Y143.062 E32.88746
G1 X83.757 Y142.74 E32.90934
G1 X83.435 Y142.474 E32.93122
G1 X83.066 Y142.276 E32.95315
G1 X82.665 Y142.155 E32.9751
G1 X82.244 Y142.114 E32.99726
G1 X81.834 Y142.155 E33.01884
G1 X81.432 Y142.276 E33.04083
G1 X81.063 Y142.475 E33.06279
G1 X80.741 Y142.74 E33.08464
G1 X80.476 Y143.062 E33.10648
G1 X80.279 Y143.43 E33.12835
G1 X80.157 Y143.831 E33.15031
G1 X80.116 Y144.247 E33.17221
G1 X80.157 Y144.664 E33.19416
G1 X80.279 Y145.063 E33.21601
G1 X80.476 Y145.434 E33.23802
G1 X80.749 Y145.762 E33.26037
G1 X81.065 Y146.021 E33.28178
G1 X81.434 Y146.218 E33.30369
G1 X81.834 Y146.339 E33.32558
G0 F3600 X81.916 Y145.925
;TYPE:WALL-OUTER
G1 F1800 X82.249 Y145.958 E33.34311
G1 X82.583 Y145.925 E33.36069
G1 X82.903 Y145.828 E33.37821
G1 X83.2 Y145.671 E33.3958
G1 X83.459 Y145.457 E33.4134
G1 X83.675 Y145.195 E33.43119
G1 X83.831 Y144.896 E33.44886
G1 X83.928 Y144.581 E33.46612
G1 X83.96 Y144.247 E33.4837
G1 X83.926 Y143.908 E33.50155
G1 X83.83 Y143.592 E33.51885
G1 X83.672 Y143.297 E33.53638
G1 X83.459 Y143.038 E33.55395
G1 X83.2 Y142.825 E33.57151
G1 X82.904 Y142.666 E33.58911
G1 X82.583 Y142.569 E33.60668
G1 X82.245 Y142.536 E33.62447
G1 X81.916 Y142.569 E33.64179
G1 X81.594 Y142.666 E33.65941
G1 X81.298 Y142.825 E33.67701
G1 X81.04 Y143.038 E33.69454
G1 X80.827 Y143.297 E33.7121
G1 X80.669 Y143.592 E33.72963
G1 X80.571 Y143.914 E33.74726
G1 X80.538 Y144.247 E33.76479
G1 X80.571 Y144.581 E33.78238
G1 X80.669 Y144.902 E33.79996
G1 X80.827 Y145.199 E33.81758
G1 X81.046 Y145.463 E33.83555
G1 X81.299 Y145.67 E33.85267
G1 X81.595 Y145.828 E33.87025
G1 X81.916 Y145.925 E33.88782
G0 F3600 X82.115 Y145.944
G0 X82.069 Y146.404
G1 F1500 E27.38782
G1 F600 Z1.3
G0 F3600 X81.834 Y112.847 Z1.3
;TYPE:WALL-INNER
G1 F600 Z0.3
G1 F1500 E33.88782
G1 F1800 X82.249 Y112.887 E33.90966
G1 X82.665 Y112.847 E33.93155
G1 X83.065 Y112.725 E33.95346
G1 X83.435 Y112.529 E33.97539
G1 X83.757 Y112.262 E33.9973
G1 X84.025 Y111.939 E34.01929
G1 X84.221 Y111.563 E34.0415
G1 X84.342 Y111.171 E34.06299
G1 X84.382 Y110.754 E34.08494
G1 X84.342 Y110.339 E34.10678
G1 X84.22 Y109.937 E34.12878
G1 X84.023 Y109.569 E34.15065
G1 X83.758 Y109.247 E34.1725
G1 X83.435 Y108.98 E34.19445
G1 X83.065 Y108.784 E34.21638
G1 X82.665 Y108.662 E34.23829
G1 X82.243 Y108.621 E34.2605
G1 X81.832 Y108.662 E34.28214
G1 X81.432 Y108.784 E34.30404
G1 X81.064 Y108.981 E34.32591
G1 X80.742 Y109.247 E34.34779
G1 X80.476 Y109.569 E34.36967
G1 X80.279 Y109.937 E34.39153
G1 X80.157 Y110.338 E34.41349
G1 X80.116 Y110.754 E34.43539
G1 X80.157 Y111.172 E34.45739
G1 X80.28 Y111.573 E34.47936
G1 X80.475 Y111.94 E34.50113
G1 X80.742 Y112.263 E34.52308
G1 X81.064 Y112.528 E34.54493
G1 X81.432 Y112.725 E34.5668
G1 X81.834 Y112.847 E34.5888
G0 F3600 X81.916 Y112.433
;TYPE:WALL-OUTER
G1 F1800 X82.249 Y112.465 E34.60633
G1 X82.583 Y112.433 E34.6239
G1 X82.904 Y112.335 E34.64149
G1 X83.2 Y112.178 E34.65904
G1 X83.459 Y111.964 E34.67664
G1 X83.673 Y111.705 E34.69424
G1 X83.831 Y111.403 E34.71209
G1 X83.928 Y111.088 E34.72936
G1 X83.96 Y110.754 E34.74693
G1 X83.928 Y110.421 E34.76446
G1 X83.83 Y110.099 E34.78209
G1 X83.672 Y109.804 E34.79962
G1 X83.459 Y109.545 E34.81719
G1 X83.2 Y109.331 E34.83479
G1 X82.904 Y109.174 E34.85234
G1 X82.583 Y109.076 E34.86992
G1 X82.244 Y109.043 E34.88776
G1 X81.915 Y109.076 E34.90508
G1 X81.594 Y109.174 E34.92267
G1 X81.299 Y109.332 E34.9402
G1 X81.04 Y109.545 E34.95776
G1 X80.827 Y109.804 E34.97533
G1 X80.669 Y110.099 E34.99286
G1 X80.571 Y110.421 E35.01049
G1 X80.538 Y110.754 E35.02802
G1 X80.571 Y111.089 E35.04566
G1 X80.67 Y111.411 E35.0633
G1 X80.826 Y111.705 E35.08074
G1 X81.04 Y111.964 E35.09834
G1 X81.299 Y112.177 E35.1159
G1 X81.594 Y112.335 E35.13343
G1 X81.916 Y112.433 E35.15107
G0 F3600 X82.115 Y112.452
G0 X82.07 Y112.912
G1 F1500 E28.65107
G1 F600 Z1.3
G0 F3600 X84.474 Y107.116 Z1.3
;TYPE:WALL-INNER
G1 F600 Z0.3
G1 F1500 E35.15107
G1 F1800 X84.474 Y109.937 E35.29884
G1 X84.474 Y110.754 E35.32434
G1 X84.474 Y111.563 E35.34319
G1 X84.474 Y143.825 E37.03322
G1 X84.474 Y144.246 E37.03915
G1 X84.474 Y145.056 E37.0688
G1 X84.474 Y147.89 E37.21726
G1 X165.629 Y147.89 E41.46854
G1 X165.629 Y145.064 E41.61658
G1 X165.629 Y144.317 E41.65571
G1 X165.665 Y144.672 E41.65904
G1 X165.784 Y145.064 E41.66878
G1 X165.982 Y145.433 E41.69072
G1 X166.246 Y145.755 E41.71253
G1 X166.569 Y146.022 E41.73448
G1 X166.939 Y146.218 E41.75641
G1 X167.34 Y146.34 E41.77837
G1 X167.756 Y146.38 E41.80026
G1 X168.17 Y146.339 E41.82206
G1 X168.57 Y146.218 E41.84395
G1 X168.94 Y146.021 E41.86591
G1 X169.262 Y145.755 E41.88779
G1 X169.528 Y145.433 E41.90967
G1 X169.726 Y145.064 E41.9316
G1 X169.847 Y144.663 E41.95354
G1 X169.888 Y144.246 E41.97549
G1 X169.845 Y143.825 E41.99766
G1 X169.724 Y143.427 E42.01945
G1 X169.527 Y143.062 E42.04118
G1 X169.263 Y142.74 E42.06299
G1 X168.941 Y142.475 E42.08484
G1 X168.572 Y142.276 E42.1068
G1 X168.17 Y142.155 E42.12879
G1 X167.755 Y142.114 E42.15064
G1 X167.339 Y142.155 E42.17254
G1 X166.938 Y142.276 E42.19448
G1 X166.569 Y142.474 E42.21642
G1 X166.246 Y142.74 E42.23833
G1 X165.982 Y143.062 E42.26015
G1 X165.784 Y143.43 E42.28204
G1 X165.663 Y143.832 E42.30403
G1 X165.629 Y144.177 E42.32219
G1 X165.629 Y143.062 E42.36135
G1 X165.629 Y136.38 E42.71138
G1 X171.358 Y136.38 E43.01149
G1 X171.358 Y118.62 E43.94184
G1 X165.629 Y118.62 E44.24196
G1 X165.629 Y111.571 E44.61122
G1 X165.629 Y110.823 E44.6504
G1 X165.664 Y111.172 E44.65372
G1 X165.784 Y111.571 E44.66353
G1 X165.982 Y111.94 E44.68547
G1 X166.246 Y112.262 E44.70728
G1 X166.569 Y112.529 E44.72923
G1 X166.939 Y112.725 E44.75117
G1 X167.34 Y112.847 E44.77312
G1 X167.755 Y112.887 E44.79496
G1 X168.17 Y112.847 E44.8168
G1 X168.572 Y112.725 E44.83881
G1 X168.94 Y112.528 E44.86068
G1 X169.262 Y112.262 E44.88256
G1 X169.528 Y111.94 E44.90444
G1 X169.726 Y111.571 E44.92637
G1 X169.847 Y111.17 E44.94831
G1 X169.888 Y110.754 E44.97021
G1 X169.846 Y110.334 E44.99232
G1 X169.726 Y109.937 E45.01405
G1 X169.527 Y109.568 E45.03601
G1 X169.262 Y109.246 E45.05786
G1 X168.94 Y108.981 E45.0797
G1 X168.572 Y108.784 E45.10157
G1 X168.171 Y108.662 E45.12353
G1 X167.755 Y108.621 E45.14542
G1 X167.338 Y108.662 E45.16737
G1 X166.939 Y108.784 E45.18923
G1 X166.569 Y108.98 E45.21116
G1 X166.246 Y109.247 E45.23312
G1 X165.981 Y109.569 E45.25496
G1 X165.784 Y109.939 E45.27692
G1 X165.663 Y110.339 E45.29881
G1 X165.629 Y110.682 E45.31687
G1 X165.629 Y109.569 E45.35606
G1 X165.629 Y107.116 E45.48456
G1 X84.474 Y107.116 E49.73585
G0 F3600 X84.894 Y107.536
;TYPE:WALL-OUTER
G1 F1800 X84.894 Y147.47 E51.82778
G1 X165.209 Y147.47 E56.03505
G1 X165.209 Y135.96 E56.638
G1 X170.938 Y135.96 E56.93811
G1 X170.938 Y119.04 E57.82446
G1 X165.209 Y119.04 E58.12458
G1 X165.209 Y107.536 E58.72721
G1 X84.894 Y107.536 E62.93449
G0 F3600 X84.894 Y107.736
G0 X84.432 Y107.736
G1 F1500 E56.43449
G1 F600 Z1.3
G0 F3600 X167.422 Y112.433 Z1.3
G1 F600 Z0.3
G1 F1500 E62.93449
G1 F1800 X167.755 Y112.465 E62.95201
G1 X168.088 Y112.433 E62.96954
G1 X168.41 Y112.335 E62.98717
G1 X168.705 Y112.177 E63.0047
G1 X168.964 Y111.964 E63.02227
G1 X169.177 Y111.705 E63.03983
G1 X169.336 Y111.409 E63.05743
G1 X169.433 Y111.088 E63.075
G1 X169.466 Y110.754 E63.09258
G1 X169.432 Y110.417 E63.11032
G1 X169.336 Y110.099 E63.12773
G1 X169.177 Y109.803 E63.14533
G1 X168.964 Y109.545 E63.16285
G1 X168.705 Y109.332 E63.18042
G1 X168.41 Y109.174 E63.19795
G1 X168.088 Y109.076 E63.21558
G1 X167.755 Y109.043 E63.23311
G1 X167.421 Y109.076 E63.25069
G1 X167.1 Y109.174 E63.26827
G1 X166.804 Y109.331 E63.28583
G1 X166.545 Y109.545 E63.30343
G1 X166.332 Y109.804 E63.32099
G1 X166.174 Y110.1 E63.33857
G1 X166.077 Y110.421 E63.35614
G1 X166.044 Y110.753 E63.37361
G1 X166.078 Y111.09 E63.39136
G1 X166.174 Y111.409 E63.40881
G1 X166.333 Y111.705 E63.42641
G1 X166.545 Y111.964 E63.44394
G1 X166.804 Y112.178 E63.46154
G1 X167.1 Y112.335 E63.47909
G1 X167.422 Y112.433 E63.49673
G0 F3600 X167.621 Y112.452
G0 X167.576 Y112.912
G1 F1500 E56.99673
G1 F600 Z1.3
G0 F3600 X167.422 Y145.926 Z1.3
G1 F600 Z0.3
G1 F1500 E63.49673
G1 F1800 X167.755 Y145.958 E63.51425
G1 X168.088 Y145.925 E63.53178
G1 X168.409 Y145.828 E63.54935
G1 X168.705 Y145.67 E63.56692
G1 X168.964 Y145.457 E63.58449
G1 X169.177 Y145.198 E63.60206
G1 X169.336 Y144.902 E63.61966
G1 X169.433 Y144.581 E63.63722
G1 X169.466 Y144.247 E63.65481
G1 X169.431 Y143.908 E63.67266
G1 X169.334 Y143.589 E63.69012
G1 X169.177 Y143.297 E63.70749
G1 X168.964 Y143.038 E63.72506
G1 X168.706 Y142.825 E63.74258
G1 X168.41 Y142.666 E63.76019
G1 X168.088 Y142.569 E63.7778
G1 X167.755 Y142.536 E63.79533
G1 X167.421 Y142.569 E63.81291
G1 X167.1 Y142.666 E63.83048
G1 X166.804 Y142.825 E63.84808
G1 X166.545 Y143.038 E63.86565
G1 X166.333 Y143.297 E63.88318
G1 X166.174 Y143.592 E63.90074
G1 X166.077 Y143.914 E63.91835
G1 X166.044 Y144.247 E63.93588
G1 X166.079 Y144.589 E63.95389
G1 X166.174 Y144.902 E63.97103
G1 X166.333 Y145.198 E63.98863
G1 X166.545 Y145.457 E64.00616
G1 X166.804 Y145.671 E64.02376
G1 X167.1 Y145.828 E64.04131
G1 X167.422 Y145.926 E64.05894
G0 F3600 X167.621 Y145.945
G0 X167.576 Y146.405
G1 F1500 E57.55894
G1 F600 Z1.3
G0 F3600 X174.37 Y149.37 Z1.3
;TYPE:WALL-INNER
G1 F600 Z0.3
G1 F1500 E64.05894
G1 F1800 X75.63 Y149.37 E69.23141
G1 X75.63 Y105.63 E71.52272
G1 X174.37 Y105.63 E76.69518
G1 X174.37 Y149.37 E78.98649
G0 F3600 X174.79 Y149.79
;TYPE:WALL-OUTER
G1 F1800 X75.21 Y149.79 E84.20296
G1 X75.21 Y105.21 E86.53827
G1 X174.79 Y105.21 E91.75474
G1 X174.79 Y149.79 E94.09005
G0 F3600 X174.59 Y149.79
G0 X174.328 Y149.328
G0 X173.96 Y148.96
;TYPE:SKIN
G1 F1800 X76.04 Y148.96 E99.21956
G1 X76.04 Y106.04 E101.46792
G1 X173.96 Y106.04 E106.59743
G1 X173.96 Y148.96 E108.84578
G1 F1500 E102.34578
G1 F600 Z1.3
G0 F3600 X169.87 Y145.663 Z1.3
G1 F600 Z0.3
G1 F1500 E108.84578
G1 F1800 X170.107 Y145.222 E108.872
G1 X170.251 Y144.743 E108.89821
G1 X170.3 Y144.246 E108.92437
G1 X170.249 Y143.743 E108.95085
G1 X170.105 Y143.269 E108.9768
G1 X169.869 Y142.832 E109.00282
G1 X169.554 Y142.449 E109.0288
G1 X169.171 Y142.133 E109.05481
G1 X168.73 Y141.895 E109.08106
G1 X168.25 Y141.751 E109.10731
G1 X167.755 Y141.702 E109.13337
G1 X167.259 Y141.751 E109.15948
G1 X166.78 Y141.895 E109.18568
G1 X166.339 Y142.132 E109.21191
G1 X166.039 Y142.38 E109.2323
G1 X166.039 Y136.79 E109.52513
G1 X171.768 Y136.79 E109.82524
G1 X171.768 Y118.21 E110.79855
G1 X166.039 Y118.21 E111.09866
G1 X166.039 Y112.623 E111.39133
G1 X166.34 Y112.872 E111.4118
G1 X166.782 Y113.106 E111.43799
G1 X167.26 Y113.251 E111.46416
G1 X167.755 Y113.299 E111.49021
G1 X168.25 Y113.251 E111.51626
G1 X168.73 Y113.106 E111.54253
G1 X169.17 Y112.87 E111.56869
G1 X169.553 Y112.553 E111.59473
G1 X169.87 Y112.17 E111.62078
G1 X170.107 Y111.729 E111.647
G1 X170.251 Y111.25 E111.6732
G1 X170.3 Y110.754 E111.69931
G1 X170.25 Y110.254 E111.72564
G1 X170.107 Y109.779 E111.75162
G1 X169.869 Y109.338 E111.77787
G1 X169.553 Y108.955 E111.80388
G1 X169.169 Y108.639 E111.82993
G1 X168.73 Y108.403 E111.85604
G1 X168.251 Y108.258 E111.88226
G1 X167.755 Y108.209 E111.90837
G1 X167.258 Y108.258 E111.93453
G1 X166.781 Y108.403 E111.96065
G1 X166.34 Y108.637 E111.9868
G1 X166.039 Y108.886 E112.00726
G1 X166.039 Y106.706 E112.12146
G1 X84.064 Y106.706 E116.4157
G1 X84.064 Y108.974 E116.53451
G1 X83.664 Y108.637 E116.56191
G1 X83.223 Y108.403 E116.58806
G1 X82.745 Y108.258 E116.61423
G1 X82.243 Y108.209 E116.64065
G1 X81.752 Y108.258 E116.6665
G1 X81.274 Y108.403 E116.69266
G1 X80.834 Y108.639 E116.71882
G1 X80.451 Y108.956 E116.74486
G1 X80.134 Y109.339 E116.77091
G1 X79.898 Y109.779 E116.79706
G1 X79.753 Y110.258 E116.82328
G1 X79.704 Y110.754 E116.84939
G1 X79.753 Y111.252 E116.8756
