;FLAVOR:Marlin
;TIME:8020
;Filament used: 6.03472m
;Layer height: 0.125
;MINX:71.37
;MINY:73.87
;MINZ:0.3
;MAXX:178.63
;MAXY:181.13
;MAXZ:9.425
;Generated with Cura_SteamEngine 4.13.1
M140 S60
M105
M190 S60
M104 S200
M105
M109 S200
M82 ;absolute extrusion mode
G21 ;metric values
G90 ;absolute positioning
M82 ;set extruder to absolute mode
M107 ;start with the fan off
G28 X0 Y0 ;move X/Y to min endstops
M300 S1318 P266
G28 Z0 ;move Z to min endstops
G0 Z0.2
G92 E0 ;zero the extruded length
G1 X40 E25 F400 ; Extrude 25mm of filament in a 4cm line. Reduce speed (F) if you have a nozzle smaller than 0.4mm!
G92 E0 ;zero the extruded length again
G1 E-1 F500 ; Retract a little
G1 X80 F4000 ; Quickly wipe away from the filament line
M117 ; Printing…
G5
G92 E0
G92 E0
G1 F1500 E-6.5
;LAYER_COUNT:66
;LAYER:0
M107
G1 F600 Z1.3
G0 F3600 X72.368 Y75.019 Z1.3
;TYPE:SKIRT
G1 F600 Z0.3
G1 F1500 E0
G1 F1800 X72.765 Y74.655 E0.02822
G1 X73.212 Y74.355 E0.05642
G1 X73.699 Y74.124 E0.08465
G1 X74.214 Y73.967 E0.11286
G1 X74.907 Y73.88 E0.14944
G1 X75.33 Y73.87 E0.17161
G1 X174.345 Y73.87 E5.35848
G1 X175.043 Y73.88 E5.39505
G1 X175.579 Y73.928 E5.42324
G1 X176.103 Y74.054 E5.45147
G1 X176.602 Y74.257 E5.47969
G1 X177.065 Y74.531 E5.50787
G1 X177.483 Y74.871 E5.5361
G1 X177.846 Y75.269 E5.56432
G1 X178.146 Y75.716 E5.59252
G1 X178.377 Y76.202 E5.62071
G1 X178.533 Y76.718 E5.64895
G1 X178.62 Y77.408 E5.68538
G1 X178.63 Y77.83 E5.70749
G1 X178.63 Y176.809 E10.89248
G1 X178.621 Y177.536 E10.93056
G1 X178.574 Y178.072 E10.95875
G1 X178.449 Y178.596 E10.98697
G1 X178.247 Y179.096 E11.01522
G1 X177.974 Y179.56 E11.04342
G1 X177.635 Y179.978 E11.07161
G1 X177.238 Y180.342 E11.09983
G1 X176.792 Y180.643 E11.12801
G1 X176.305 Y180.875 E11.15627
G1 X175.79 Y181.032 E11.18448
G1 X175.093 Y181.12 E11.22128
G1 X174.67 Y181.13 E11.24344
G1 X75.66 Y181.13 E16.43005
G1 X74.962 Y181.121 E16.46662
G1 X74.426 Y181.074 E16.49481
G1 X73.902 Y180.948 E16.52304
G1 X73.403 Y180.746 E16.55124
G1 X72.939 Y180.473 E16.57944
G1 X72.521 Y180.134 E16.60763
G1 X72.157 Y179.737 E16.63585
G1 X71.856 Y179.29 E16.66408
G1 X71.625 Y178.804 E16.69227
G1 X71.468 Y178.289 E16.72047
G1 X71.38 Y177.589 E16.75743
G1 X71.37 Y177.158 E16.78001
G1 X71.37 Y78.125 E21.96783
G1 X71.379 Y77.46 E22.00267
G1 X71.427 Y76.923 E22.03091
G1 X71.553 Y76.4 E22.05909
G1 X71.755 Y75.901 E22.08729
G1 X72.028 Y75.437 E22.11549
G1 X72.368 Y75.019 E22.14372
G0 F3600 X72.78 Y75.199
G1 F1800 X73.171 Y74.878 E22.17022
G1 X73.607 Y74.621 E22.19673
G1 X74.079 Y74.437 E22.22327
G1 X74.574 Y74.329 E22.24981
G1 X75.24 Y74.291 E22.28476
G1 X174.339 Y74.29 E27.47603
G1 X175.037 Y74.3 E27.5126
G1 X175.541 Y74.347 E27.53911
G1 X176.032 Y74.473 E27.56567
G1 X176.496 Y74.675 E27.59218
G1 X176.923 Y74.947 E27.6187
G1 X177.302 Y75.282 E27.6452
G1 X177.624 Y75.674 E27.67177
G1 X177.88 Y76.111 E27.6983
G1 X178.064 Y76.582 E27.72479
G1 X178.172 Y77.077 E27.75133
G1 X178.209 Y77.74 E27.78612
G1 X178.21 Y176.804 E32.97556
G1 X178.201 Y177.531 E33.01364
G1 X178.155 Y178.035 E33.04015
G1 X178.03 Y178.526 E33.0667
G1 X177.829 Y178.991 E33.09323
G1 X177.558 Y179.418 E33.11973
G1 X177.223 Y179.798 E33.14626
G1 X176.832 Y180.12 E33.1728
G1 X176.396 Y180.377 E33.19931
G1 X175.925 Y180.562 E33.22582
G1 X175.43 Y180.671 E33.25237
G1 X174.76 Y180.709 E33.28752
G1 X75.666 Y180.71 E38.47853
G1 X74.968 Y180.701 E38.5151
G1 X74.463 Y180.654 E38.54167
G1 X73.973 Y180.529 E38.56816
G1 X73.508 Y180.328 E38.5947
G1 X73.08 Y180.057 E38.62124
G1 X72.701 Y179.722 E38.64773
G1 X72.379 Y179.331 E38.67427
G1 X72.122 Y178.895 E38.70078
G1 X71.937 Y178.423 E38.72734
G1 X71.829 Y177.929 E38.75383
G1 X71.791 Y177.245 E38.78971
G1 X71.79 Y78.131 E43.98177
G1 X71.799 Y77.466 E44.01661
G1 X71.846 Y76.961 E44.04318
G1 X71.972 Y76.471 E44.06968
G1 X72.173 Y76.006 E44.09622
G1 X72.444 Y75.579 E44.12271
G1 X72.78 Y75.199 E44.14928
G1 F1500 E37.64928
G1 F600 Z1.3
;MESH:e-ink-display-base-board.stl
G0 F3600 X171.85 Y174.35 Z1.3
;TYPE:WALL-INNER
G1 F600 Z0.3
G1 F1500 E44.14928
G1 F1800 X78.15 Y174.35 E49.05773
G1 X78.15 Y80.65 E53.96618
G1 X171.85 Y80.65 E58.87463
G1 X171.85 Y174.35 E63.78307
G0 F3600 X172.27 Y174.77
G1 F1800 X77.73 Y174.77 E68.73552
G1 X77.73 Y80.23 E73.68798
G1 X172.27 Y80.23 E78.64043
G1 X172.27 Y174.77 E83.59288
G0 F3600 X172.69 Y175.19
G1 F1800 X77.31 Y175.19 E88.58933
G1 X77.31 Y79.81 E93.58578
G1 X172.69 Y79.81 E98.58224
G1 X172.69 Y175.19 E103.57869
G0 F3600 X173.11 Y175.61
G1 F1800 X76.89 Y175.61 E108.61915
G1 X76.89 Y79.39 E113.65961
G1 X173.11 Y79.39 E118.70006
G1 X173.11 Y175.61 E123.74052
G0 F3600 X173.53 Y176.03
G1 F1800 X76.47 Y176.03 E128.82498
G1 X76.47 Y78.97 E133.90944
G1 X173.53 Y78.97 E138.9939
G1 X173.53 Y176.03 E144.07836
G0 F3600 X173.95 Y176.45
G1 F1800 X76.05 Y176.45 E149.20682
G1 X76.05 Y78.55 E154.33529
G1 X173.95 Y78.55 E159.46375
G1 X173.95 Y176.45 E164.59221
G0 F3600 X174.37 Y176.87
G1 F1800 X75.63 Y176.87 E169.76468
G1 X75.63 Y78.13 E174.93715
G1 X174.37 Y78.13 E180.10961
G1 X174.37 Y176.87 E185.28208
G0 F3600 X174.79 Y177.29
;TYPE:WALL-OUTER
G1 F1800 X75.21 Y177.29 E190.49855
G1 X75.21 Y77.71 E195.71502
G1 X174.79 Y77.71 E200.93149
G1 X174.79 Y177.29 E206.14796
G0 F3600 X174.59 Y177.29
G0 X174.328 Y176.828
G1 F1500 E199.64796
G1 F600 Z1.3
G0 F3600 X171.44 Y173.94 Z1.3
;TYPE:SKIN
G1 F600 Z0.3
G1 F1500 E206.14796
G1 F1800 X78.56 Y173.94 E211.01345
G1 X78.56 Y81.06 E215.87894
G1 X171.44 Y81.06 E220.74444
G1 X171.44 Y173.94 E225.60993
G1 F1500 E219.10993
G1 F600 Z1.3
G0 F3600 X171.251 Y81.561 Z1.3
G1 F600 Z0.3
G1 F1500 E225.60993
G1 F1800 X170.938 Y81.248 E225.63312
G0 F3600 X170.344 Y81.248
G1 F1800 X171.251 Y82.155 E225.70031
G0 F3600 X171.251 Y82.749
G1 F1800 X169.75 Y81.248 E225.81151
G0 F3600 X169.156 Y81.248
G1 F1800 X171.251 Y83.343 E225.96671
G0 F3600 X171.251 Y83.937
G1 F1800 X168.562 Y81.248 E226.16592
G0 F3600 X167.968 Y81.248
G1 F1800 X171.251 Y84.531 E226.40914
G0 F3600 X171.251 Y85.125
G1 F1800 X167.374 Y81.248 E226.69636
G0 F3600 X166.78 Y81.248
G1 F1800 X171.251 Y85.719 E227.02758
G0 F3600 X171.251 Y86.313
G1 F1800 X166.186 Y81.248 E227.40281
G0 F3600 X165.592 Y81.248
G1 F1800 X171.251 Y86.907 E227.82205
G0 F3600 X171.251 Y87.501
G1 F1800 X164.998 Y81.248 E228.28529
G0 F3600 X164.404 Y81.248
G1 F1800 X171.251 Y88.095 E228.79254
G0 F3600 X171.251 Y88.689
G1 F1800 X163.81 Y81.248 E229.34379
G0 F3600 X163.216 Y81.248
G1 F1800 X171.251 Y89.283 E229.93905
G0 F3600 X171.251 Y89.877
G1 F1800 X162.622 Y81.248 E230.57832
G0 F3600 X162.028 Y81.248
G1 F1800 X171.251 Y90.471 E231.26159
G0 F3600 X171.251 Y91.065
G1 F1800 X161.434 Y81.248 E231.98886
G0 F3600 X160.84 Y81.248
G1 F1800 X171.251 Y91.659 E232.76014
G0 F3600 X171.251 Y92.253
G1 F1800 X160.246 Y81.248 E233.57542
G0 F3600 X159.652 Y81.248
G1 F1800 X171.251 Y92.847 E234.43472
G0 F3600 X171.251 Y93.441
G1 F1800 X159.058 Y81.248 E235.33801
G0 F3600 X158.464 Y81.248
G1 F1800 X171.251 Y94.035 E236.28531
G0 F3600 X171.251 Y94.629
G1 F1800 X157.87 Y81.248 E237.27662
G0 F3600 X157.276 Y81.248
G1 F1800 X171.251 Y95.223 E238.31193
G0 F3600 X171.251 Y95.817
G1 F1800 X156.682 Y81.248 E239.39125
G0 F3600 X156.088 Y81.248
G1 F1800 X171.251 Y96.411 E240.51457
G0 F3600 X171.251 Y97.005
G1 F1800 X155.494 Y81.248 E241.6819
G0 F3600 X154.9 Y81.248
G1 F1800 X171.251 Y97.599 E242.89324
G0 F3600 X171.251 Y98.193
G1 F1800 X154.306 Y81.248 E244.14858
G0 F3600 X153.712 Y81.248
G1 F1800 X171.251 Y98.787 E245.44792
G0 F3600 X171.251 Y99.381
G1 F1800 X153.119 Y81.248 E246.79123
G0 F3600 X152.525 Y81.248
G1 F1800 X171.251 Y99.974 E248.17851
G0 F3600 X171.251 Y100.568
G1 F1800 X151.931 Y81.248 E249.6098
G0 F3600 X151.337 Y81.248
G1 F1800 X171.251 Y101.162 E251.08509
G0 F3600 X171.251 Y101.756
G1 F1800 X150.743 Y81.248 E252.60439
G0 F3600 X150.149 Y81.248
G1 F1800 X171.251 Y102.35 E254.16769
G0 F3600 X171.251 Y102.944
G1 F1800 X149.555 Y81.248 E255.775
G0 F3600 X148.961 Y81.248
G1 F1800 X171.251 Y103.538 E257.42632
G0 F3600 X171.251 Y104.132
G1 F1800 X148.367 Y81.248 E259.12164
G0 F3600 X147.773 Y81.248
G1 F1800 X171.251 Y104.726 E260.86096
G0 F3600 X171.251 Y105.32
G1 F1800 X147.179 Y81.248 E262.64429
G0 F3600 X146.585 Y81.248
G1 F1800 X171.251 Y105.914 E264.47163
G0 F3600 X171.251 Y106.508
G1 F1800 X145.991 Y81.248 E266.34297
G0 F3600 X145.397 Y81.248
G1 F1800 X171.251 Y107.102 E268.25831
G0 F3600 X171.251 Y107.696
G1 F1800 X144.803 Y81.248 E270.21767
G0 F3600 X144.209 Y81.248
G1 F1800 X171.251 Y108.29 E272.22102
G0 F3600 X171.251 Y108.884
G1 F1800 X143.615 Y81.248 E274.26838
G0 F3600 X143.021 Y81.248
G1 F1800 X171.251 Y109.478 E276.35975
G0 F3600 X171.251 Y110.072
G1 F1800 X142.427 Y81.248 E278.49513
G0 F3600 X141.833 Y81.248
G1 F1800 X171.251 Y110.666 E280.6745
G0 F3600 X171.251 Y111.26
G1 F1800 X141.239 Y81.248 E282.89789
G0 F3600 X140.645 Y81.248
G1 F1800 X171.251 Y111.854 E285.16528
G0 F3600 X171.251 Y112.448
G1 F1800 X140.051 Y81.248 E287.47667
G0 F3600 X139.457 Y81.248
G1 F1800 X171.251 Y113.042 E289.83207
G0 F3600 X171.251 Y113.636
G1 F1800 X138.863 Y81.248 E292.23148
G0 F3600 X138.269 Y81.248
G1 F1800 X171.251 Y114.23 E294.67489
G0 F3600 X171.251 Y114.824
G1 F1800 X137.675 Y81.248 E297.16231
G0 F3600 X137.081 Y81.248
G1 F1800 X171.251 Y115.418 E299.69373
G0 F3600 X171.251 Y116.012
G1 F1800 X136.487 Y81.248 E302.26916
G0 F3600 X135.893 Y81.248
G1 F1800 X171.251 Y116.606 E304.88859
G0 F3600 X171.251 Y117.2
G1 F1800 X135.299 Y81.248 E307.55203
G0 F3600 X134.705 Y81.248
G1 F1800 X171.251 Y117.794 E310.25947
G0 F3600 X171.251 Y118.388
G1 F1800 X134.111 Y81.248 E313.01092
G0 F3600 X133.518 Y81.248
G1 F1800 X171.251 Y118.982 E315.80634
G0 F3600 X171.251 Y119.575
G1 F1800 X132.924 Y81.248 E318.64572
G0 F3600 X132.33 Y81.248
G1 F1800 X171.251 Y120.169 E321.52911
G0 F3600 X171.251 Y120.763
G1 F1800 X131.736 Y81.248 E324.45651
G0 F3600 X131.142 Y81.248
G1 F1800 X171.251 Y121.357 E327.42791
G0 F3600 X171.251 Y121.951
G1 F1800 X130.548 Y81.248 E330.44332
G0 F3600 X129.954 Y81.248
G1 F1800 X171.251 Y122.545 E333.50273
G0 F3600 X171.251 Y123.139
G1 F1800 X129.36 Y81.248 E336.60615
G0 F3600 X128.766 Y81.248
G1 F1800 X171.251 Y123.733 E339.75357
G0 F3600 X171.251 Y124.327
G1 F1800 X128.172 Y81.248 E342.945
G0 F3600 X127.578 Y81.248
G1 F1800 X171.251 Y124.921 E346.18044
G0 F3600 X171.251 Y125.515
G1 F1800 X126.984 Y81.248 E349.45988
G0 F3600 X126.39 Y81.248
G1 F1800 X171.251 Y126.109 E352.78332
G0 F3600 X171.251 Y126.703
G1 F1800 X125.796 Y81.248 E356.15077
G0 F3600 X125.202 Y81.248
G1 F1800 X171.251 Y127.297 E359.56223
G0 F3600 X171.251 Y127.891
G1 F1800 X124.608 Y81.248 E363.01769
G0 F3600 X124.014 Y81.248
G1 F1800 X171.251 Y128.485 E366.51716
G0 F3600 X171.251 Y129.079
G1 F1800 X123.42 Y81.248 E370.06063
G0 F3600 X122.826 Y81.248
G1 F1800 X171.251 Y129.673 E373.64811
G0 F3600 X171.251 Y130.267
G1 F1800 X122.232 Y81.248 E377.27959
G0 F3600 X121.638 Y81.248
G1 F1800 X171.251 Y130.861 E380.95508
G0 F3600 X171.251 Y131.455
G1 F1800 X121.044 Y81.248 E384.67457
G0 F3600 X120.45 Y81.248
G1 F1800 X171.251 Y132.049 E388.43807
G0 F3600 X171.251 Y132.643
G1 F1800 X119.856 Y81.248 E392.24558
G0 F3600 X119.262 Y81.248
G1 F1800 X171.251 Y133.237 E396.09709
G0 F3600 X171.251 Y133.831
G1 F1800 X118.668 Y81.248 E399.9926
G0 F3600 X118.074 Y81.248
G1 F1800 X171.251 Y134.425 E403.93212
G0 F3600 X171.251 Y135.019
G1 F1800 X117.48 Y81.248 E407.91565
G0 F3600 X116.886 Y81.248
G1 F1800 X171.251 Y135.613 E411.94318
G0 F3600 X171.251 Y136.207
G1 F1800 X116.292 Y81.248 E416.01472
G0 F3600 X115.698 Y81.248
G1 F1800 X171.251 Y136.801 E420.13026
G0 F3600 X171.251 Y137.395
G1 F1800 X115.104 Y81.248 E424.28981
G0 F3600 X114.51 Y81.248
G1 F1800 X171.251 Y137.989 E428.49336
G0 F3600 X171.251 Y138.583
G1 F1800 X113.917 Y81.248 E432.74088
G0 F3600 X113.323 Y81.248
G1 F1800 X171.251 Y139.176 E437.03237
G0 F3600 X171.251 Y139.77
G1 F1800 X112.729 Y81.248 E441.36787
G0 F3600 X112.135 Y81.248
G1 F1800 X171.251 Y140.364 E445.74737
G0 F3600 X171.251 Y140.958
G1 F1800 X111.541 Y81.248 E450.17087
G0 F3600 X110.947 Y81.248
G1 F1800 X171.251 Y141.552 E454.63839
G0 F3600 X171.251 Y142.146
G1 F1800 X110.353 Y81.248 E459.1499
G0 F3600 X109.759 Y81.248
G1 F1800 X171.251 Y142.74 E463.70542
G0 F3600 X171.251 Y143.334
G1 F1800 X109.165 Y81.248 E468.30495
G0 F3600 X108.571 Y81.248
G1 F1800 X171.251 Y143.928 E472.94849
G0 F3600 X171.251 Y144.522
G1 F1800 X107.977 Y81.248 E477.63602
G0 F3600 X107.383 Y81.248
G1 F1800 X171.251 Y145.116 E482.36757
G0 F3600 X171.251 Y145.71
G1 F1800 X106.789 Y81.248 E487.14312
G0 F3600 X106.195 Y81.248
G1 F1800 X171.251 Y146.304 E491.96267
G0 F3600 X171.251 Y146.898
G1 F1800 X105.601 Y81.248 E496.82623
G0 F3600 X105.007 Y81.248
G1 F1800 X171.251 Y147.492 E501.7338
G0 F3600 X171.251 Y148.086
G1 F1800 X104.413 Y81.248 E506.68537
G0 F3600 X103.819 Y81.248
G1 F1800 X171.251 Y148.68 E511.68095
G0 F3600 X171.251 Y149.274
G1 F1800 X103.225 Y81.248 E516.72053
G0 F3600 X102.631 Y81.248
G1 F1800 X171.251 Y149.868 E521.80411
G0 F3600 X171.251 Y150.462
G1 F1800 X102.037 Y81.248 E526.93171
G0 F3600 X101.443 Y81.248
G1 F1800 X171.251 Y151.056 E532.1033
G0 F3600 X171.251 Y151.65
G1 F1800 X100.849 Y81.248 E537.31891
G0 F3600 X100.255 Y81.248
G1 F1800 X171.251 Y152.244 E542.57852
G0 F3600 X171.251 Y152.838
G1 F1800 X99.661 Y81.248 E547.88213
G0 F3600 X99.067 Y81.248
G1 F1800 X171.251 Y153.432 E553.22975
G0 F3600 X171.251 Y154.026
G1 F1800 X98.473 Y81.248 E558.62138
G0 F3600 X97.879 Y81.248
G1 F1800 X171.251 Y154.62 E564.05701
G0 F3600 X171.251 Y155.214
G1 F1800 X97.285 Y81.248 E569.53664
G0 F3600 X96.691 Y81.248
G1 F1800 X171.251 Y155.808 E575.06028
G0 F3600 X171.251 Y156.402
G1 F1800 X96.097 Y81.248 E580.62793
G0 F3600 X95.503 Y81.248
G1 F1800 X171.251 Y156.996 E586.23958
G0 F3600 X171.251 Y157.59
G1 F1800 X94.909 Y81.248 E591.89524
G0 F3600 X94.316 Y81.248
G1 F1800 X171.251 Y158.184 E597.59487
G0 F3600 X171.251 Y158.777
G1 F1800 X93.722 Y81.248 E603.33846
G0 F3600 X93.128 Y81.248
G1 F1800 X171.251 Y159.371 E609.12606
G0 F3600 X171.251 Y159.965
G1 F1800 X92.534 Y81.248 E614.95766
G0 F3600 X91.94 Y81.248
G1 F1800 X171.251 Y160.559 E620.83327
G0 F3600 X171.251 Y161.153
G1 F1800 X91.346 Y81.248 E626.75289
G0 F3600 X90.752 Y81.248
G1 F1800 X171.251 Y161.747 E632.71651
G0 F3600 X171.251 Y162.341
G1 F1800 X90.158 Y81.248 E638.72414
G0 F3600 X89.564 Y81.248
G1 F1800 X171.251 Y162.935 E644.77577
G0 F3600 X171.251 Y163.529
G1 F1800 X88.97 Y81.248 E650.87141
G0 F3600 X88.376 Y81.248
G1 F1800 X171.251 Y164.123 E657.01105
G0 F3600 X171.251 Y164.717
G1 F1800 X87.782 Y81.248 E663.1947
G0 F3600 X87.188 Y81.248
G1 F1800 X171.251 Y165.311 E669.42235
G0 F3600 X171.251 Y165.905
G1 F1800 X86.594 Y81.248 E675.69401
G0 F3600 X86 Y81.248
G1 F1800 X171.251 Y166.499 E682.00968
G0 F3600 X171.251 Y167.093
G1 F1800 X85.406 Y81.248 E688.36935
G0 F3600 X84.812 Y81.248
G1 F1800 X171.251 Y167.687 E694.77302
G0 F3600 X171.251 Y168.281
G1 F1800 X84.218 Y81.248 E701.2207
G0 F3600 X83.624 Y81.248
G1 F1800 X171.251 Y168.875 E707.71239
G0 F3600 X171.251 Y169.469
G1 F1800 X83.03 Y81.248 E714.24808
G0 F3600 X82.436 Y81.248
G1 F1800 X171.251 Y170.063 E720.82778
G0 F3600 X171.251 Y170.657
G1 F1800 X81.842 Y81.248 E727.45148
G0 F3600 X81.248 Y81.248
G1 F1800 X171.251 Y171.251 E734.11919
G0 F3600 X171.251 Y171.845
G1 F1800 X80.654 Y81.248 E740.8309
G0 F3600 X80.06 Y81.248
G1 F1800 X171.251 Y172.439 E747.58662
G0 F3600 X171.251 Y173.033
G1 F1800 X79.466 Y81.248 E754.38634
G0 F3600 X78.872 Y81.248
G1 F1800 X171.251 Y173.627 E761.23007
G0 F3600 X170.78 Y173.75
G1 F1800 X78.749 Y81.718 E768.04806
G0 F3600 X78.749 Y82.312
G1 F1800 X170.186 Y173.75 E774.82204
G0 F3600 X169.592 Y173.75
G1 F1800 X78.749 Y82.906 E781.55201
G0 F3600 X78.749 Y83.5
G1 F1800 X168.998 Y173.75 E788.23798
G0 F3600 X168.404 Y173.75
G1 F1800 X78.749 Y84.094 E794.87994
G0 F3600 X78.749 Y84.688
G1 F1800 X167.81 Y173.75 E801.4779
G0 F3600 X167.216 Y173.75
G1 F1800 X78.749 Y85.282 E808.03185
G0 F3600 X78.749 Y85.876
G1 F1800 X166.622 Y173.75 E814.5418
G0 F3600 X166.028 Y173.75
G1 F1800 X78.749 Y86.47 E821.00774
G0 F3600 X78.749 Y87.064
G1 F1800 X165.434 Y173.75 E827.42968
