;FLAVOR:Marlin
;TIME:2827
;Filament used: 1.93446m
;Layer height: 0.125
;MINX:96.953
;MINY:99.453
;MINZ:0.3
;MAXX:153.047
;MAXY:155.547
;MAXZ:4.55
;Generated with Cura_SteamEngine 4.13.1
M140 S60
M105
M190 S60
M104 S200
M105
M109 S200
M82 ;absolute extrusion mode
G21 ;metric values
G90 ;absolute positioning
M82 ;set extruder to absolute mode
M107 ;start with the fan off
G28 X0 Y0 ;move X/Y to min endstops
M300 S1318 P266
G28 Z0 ;move Z to min endstops
G0 Z0.2
G92 E0 ;zero the extruded length
G1 X40 E25 F400 ; Extrude 25mm of filament in a 4cm line. Reduce speed (F) if you have a nozzle smaller than 0.4mm!
G92 E0 ;zero the extruded length again
G1 E-1 F500 ; Retract a little
G1 X80 F4000 ; Quickly wipe away from the filament line
M117 ; Printing…
G5
G92 E0
G92 E0
G1 F1500 E-6.5
;LAYER_COUNT:27
;LAYER:0
M107
G1 F600 Z1.3
G0 F3600 X97.951 Y100.602 Z1.3
;TYPE:SKIRT
G1 F600 Z0.3
G1 F1500 E0
G1 F1800 X98.348 Y100.238 E0.02822
G1 X98.795 Y99.938 E0.05642
G1 X99.282 Y99.707 E0.08465
G1 X99.797 Y99.55 E0.11286
G1 X100.49 Y99.463 E0.14944
G1 X100.913 Y99.453 E0.17161
G1 X148.762 Y99.453 E2.67816
G1 X149.46 Y99.463 E2.71473
G1 X149.996 Y99.511 E2.74292
G1 X150.52 Y99.637 E2.77116
G1 X151.019 Y99.84 E2.79938
G1 X151.482 Y100.114 E2.82756
G1 X151.9 Y100.454 E2.85578
G1 X152.263 Y100.852 E2.884
G1 X152.563 Y101.299 E2.9122
G1 X152.794 Y101.785 E2.94039
G1 X152.95 Y102.301 E2.96863
G1 X153.037 Y102.991 E3.00506
G1 X153.047 Y103.413 E3.02717
G1 X153.047 Y151.226 E5.53185
G1 X153.038 Y151.953 E5.56993
G1 X152.991 Y152.489 E5.59812
G1 X152.866 Y153.013 E5.62634
G1 X152.664 Y153.513 E5.65459
G1 X152.391 Y153.977 E5.68279
G1 X152.052 Y154.395 E5.71098
G1 X151.655 Y154.759 E5.7392
G1 X151.209 Y155.06 E5.76738
G1 X150.722 Y155.292 E5.79564
G1 X150.207 Y155.449 E5.82384
G1 X149.51 Y155.537 E5.86065
G1 X149.087 Y155.547 E5.88281
G1 X101.243 Y155.547 E8.38911
G1 X100.545 Y155.538 E8.42567
G1 X100.009 Y155.491 E8.45386
G1 X99.485 Y155.365 E8.48209
G1 X98.986 Y155.163 E8.51029
G1 X98.522 Y154.89 E8.53849
G1 X98.104 Y154.551 E8.56669
G1 X97.74 Y154.154 E8.5949
G1 X97.439 Y153.707 E8.62313
G1 X97.208 Y153.221 E8.65132
G1 X97.051 Y152.706 E8.67952
G1 X96.963 Y152.006 E8.71648
G1 X96.953 Y151.575 E8.73907
G1 X96.953 Y103.708 E11.24656
G1 X96.962 Y103.043 E11.2814
G1 X97.01 Y102.506 E11.30965
G1 X97.136 Y101.983 E11.33783
G1 X97.338 Y101.484 E11.36603
G1 X97.611 Y101.02 E11.39423
G1 X97.951 Y100.602 E11.42246
G0 F3600 X98.363 Y100.782
G1 F1800 X98.754 Y100.461 E11.44896
G1 X99.19 Y100.204 E11.47547
G1 X99.662 Y100.02 E11.50201
G1 X100.157 Y99.912 E11.52855
G1 X100.823 Y99.874 E11.56349
G1 X148.756 Y99.873 E14.07445
G1 X149.454 Y99.883 E14.11102
G1 X149.958 Y99.93 E14.13753
G1 X150.449 Y100.056 E14.16409
G1 X150.913 Y100.258 E14.1906
G1 X151.34 Y100.53 E14.21712
G1 X151.719 Y100.865 E14.24362
G1 X152.041 Y101.257 E14.27019
G1 X152.297 Y101.694 E14.29672
G1 X152.481 Y102.165 E14.32321
G1 X152.589 Y102.66 E14.34975
G1 X152.626 Y103.323 E14.38454
G1 X152.627 Y151.221 E16.89366
G1 X152.618 Y151.948 E16.93175
G1 X152.572 Y152.452 E16.95826
G1 X152.447 Y152.943 E16.9848
G1 X152.246 Y153.408 E17.01134
G1 X151.975 Y153.835 E17.03783
G1 X151.64 Y154.215 E17.06437
G1 X151.249 Y154.537 E17.0909
G1 X150.813 Y154.794 E17.11741
G1 X150.342 Y154.979 E17.14392
G1 X149.847 Y155.088 E17.17047
G1 X149.177 Y155.126 E17.20563
G1 X101.249 Y155.127 E19.71632
G1 X100.551 Y155.118 E19.75289
G1 X100.046 Y155.071 E19.77946
G1 X99.556 Y154.946 E19.80595
G1 X99.091 Y154.745 E19.83248
G1 X98.663 Y154.474 E19.85902
G1 X98.284 Y154.139 E19.88552
G1 X97.962 Y153.748 E19.91205
G1 X97.705 Y153.312 E19.93857
G1 X97.52 Y152.84 E19.96512
G1 X97.412 Y152.346 E19.99161
G1 X97.374 Y151.662 E20.0275
G1 X97.373 Y103.714 E22.53924
G1 X97.382 Y103.049 E22.57408
G1 X97.429 Y102.544 E22.60065
G1 X97.555 Y102.054 E22.62715
G1 X97.756 Y101.589 E22.65369
G1 X98.027 Y101.162 E22.68018
G1 X98.363 Y100.782 E22.70675
G1 F1500 E16.20675
G1 F600 Z1.3
;MESH:e-ink-display-base-board.stl
G0 F3600 X140.558 Y109.5 Z1.3
;TYPE:WALL-INNER
G1 F600 Z0.3
G1 F1500 E22.70675
G1 F1800 X140.558 Y145.5 E24.5926
G1 X147.658 Y145.5 E24.96453
G1 X147.658 Y109.5 E26.85038
G1 X140.558 Y109.5 E27.22232
G0 F3600 X140.978 Y109.92
G1 F1800 X140.978 Y145.08 E29.06416
G1 X147.238 Y145.08 E29.39209
G1 X147.238 Y109.92 E31.23394
G1 X140.978 Y109.92 E31.56187
G0 F3600 X141.398 Y110.34
;TYPE:WALL-OUTER
G1 F1800 X141.398 Y144.66 E33.35971
G1 X146.818 Y144.66 E33.64363
G1 X146.818 Y110.34 E35.44148
G1 X141.398 Y110.34 E35.7254
G0 F3600 X141.398 Y110.54
G0 X140.936 Y110.54
G1 F1500 E29.2254
G1 F600 Z1.3
G0 F3600 X148.367 Y150.867 Z1.3
;TYPE:WALL-INNER
G1 F600 Z0.3
G1 F1500 E35.7254
G1 F1800 X101.633 Y150.867 E38.17355
G1 X101.633 Y104.133 E40.6217
G1 X148.367 Y104.133 E43.06984
G1 X148.367 Y150.867 E45.51799
G0 F3600 X148.787 Y151.287
G1 F1800 X101.213 Y151.287 E48.01014
G1 X101.213 Y103.713 E50.50229
G1 X148.787 Y103.713 E52.99444
G1 X148.787 Y151.287 E55.48659
G0 F3600 X149.207 Y151.707
;TYPE:WALL-OUTER
G1 F1800 X100.793 Y151.707 E58.02275
G1 X100.793 Y103.293 E60.5589
G1 X149.207 Y103.293 E63.09505
G1 X149.207 Y151.707 E65.63121
G0 F3600 X149.007 Y151.707
G0 X148.745 Y151.245
G1 F1500 E59.13121
G1 F600 Z1.3
G0 F3600 X147.957 Y150.457 Z1.3
;TYPE:SKIN
G1 F600 Z0.3
G1 F1500 E65.63121
G1 F1800 X102.043 Y150.457 E68.0364
G1 X102.043 Y104.543 E70.44159
G1 X147.957 Y104.543 E72.84678
G1 X147.957 Y109.09 E73.08497
G1 X140.148 Y109.09 E73.49405
G1 X140.148 Y145.91 E75.42285
G1 X147.957 Y145.91 E75.83192
G1 X147.957 Y150.457 E76.07012
G1 F1500 E69.57012
G1 F600 Z1.3
G0 F3600 X147.767 Y105.001 Z1.3
G1 F600 Z0.3
G1 F1500 E76.07012
G1 F1800 X147.497 Y104.731 E76.09012
G0 F3600 X146.903 Y104.731
G1 F1800 X147.767 Y105.595 E76.15413
G0 F3600 X147.767 Y106.189
G1 F1800 X146.309 Y104.731 E76.26214
G0 F3600 X145.715 Y104.731
G1 F1800 X147.767 Y106.783 E76.41416
G0 F3600 X147.767 Y107.377
G1 F1800 X145.121 Y104.731 E76.61018
G0 F3600 X144.527 Y104.731
G1 F1800 X147.767 Y107.971 E76.85021
G0 F3600 X147.767 Y108.565
G1 F1800 X143.933 Y104.731 E77.13425
G0 F3600 X143.339 Y104.731
G1 F1800 X147.508 Y108.9 E77.4431
G0 F3600 X146.914 Y108.9
G1 F1800 X142.745 Y104.731 E77.75195
G0 F3600 X142.151 Y104.731
G1 F1800 X146.32 Y108.9 E78.06081
G0 F3600 X145.726 Y108.9
G1 F1800 X141.557 Y104.731 E78.36966
G0 F3600 X140.963 Y104.731
G1 F1800 X145.132 Y108.9 E78.67851
G0 F3600 X144.538 Y108.9
G1 F1800 X140.369 Y104.731 E78.98736
G0 F3600 X139.775 Y104.731
G1 F1800 X143.945 Y108.9 E79.29625
G0 F3600 X143.351 Y108.9
G1 F1800 X139.181 Y104.731 E79.60514
G0 F3600 X138.587 Y104.731
G1 F1800 X142.757 Y108.9 E79.91403
G0 F3600 X142.163 Y108.9
G1 F1800 X137.994 Y104.731 E80.22289
G0 F3600 X137.4 Y104.731
G1 F1800 X141.569 Y108.9 E80.53174
G0 F3600 X140.975 Y108.9
G1 F1800 X136.806 Y104.731 E80.84059
G0 F3600 X136.212 Y104.731
G1 F1800 X140.381 Y108.9 E81.14945
G0 F3600 X139.959 Y109.072
G1 F1800 X135.618 Y104.731 E81.47104
G0 F3600 X135.024 Y104.731
G1 F1800 X139.959 Y109.666 E81.83664
G0 F3600 X139.959 Y110.26
G1 F1800 X134.43 Y104.731 E82.24625
G0 F3600 X133.836 Y104.731
G1 F1800 X139.959 Y110.854 E82.69986
G0 F3600 X139.959 Y111.448
G1 F1800 X133.242 Y104.731 E83.19747
G0 F3600 X132.648 Y104.731
G1 F1800 X139.959 Y112.042 E83.7391
G0 F3600 X139.959 Y112.636
G1 F1800 X132.054 Y104.731 E84.32472
G0 F3600 X131.46 Y104.731
G1 F1800 X139.959 Y113.23 E84.95436
G0 F3600 X139.959 Y113.824
G1 F1800 X130.866 Y104.731 E85.62799
G0 F3600 X130.272 Y104.731
G1 F1800 X139.959 Y114.418 E86.34564
G0 F3600 X139.959 Y115.012
G1 F1800 X129.678 Y104.731 E87.10729
G0 F3600 X129.084 Y104.731
G1 F1800 X139.959 Y115.606 E87.91294
G0 F3600 X139.959 Y116.2
G1 F1800 X128.49 Y104.731 E88.7626
G0 F3600 X127.896 Y104.731
G1 F1800 X139.959 Y116.794 E89.65627
G0 F3600 X139.959 Y117.388
G1 F1800 X127.302 Y104.731 E90.59394
G0 F3600 X126.708 Y104.731
G1 F1800 X139.959 Y117.982 E91.57561
G0 F3600 X139.959 Y118.576
G1 F1800 X126.114 Y104.731 E92.6013
G0 F3600 X125.52 Y104.731
G1 F1800 X139.959 Y119.17 E93.67098
G0 F3600 X139.959 Y119.764
G1 F1800 X124.926 Y104.731 E94.78467
G0 F3600 X124.332 Y104.731
G1 F1800 X139.959 Y120.358 E95.94237
G0 F3600 X139.959 Y120.952
G1 F1800 X123.738 Y104.731 E97.14408
G0 F3600 X123.144 Y104.731
G1 F1800 X139.959 Y121.545 E98.38975
G0 F3600 X139.959 Y122.139
G1 F1800 X122.55 Y104.731 E99.67942
G0 F3600 X121.956 Y104.731
G1 F1800 X139.959 Y122.733 E101.01311
G0 F3600 X139.959 Y123.327
G1 F1800 X121.362 Y104.731 E102.39079
G0 F3600 X120.768 Y104.731
G1 F1800 X139.959 Y123.921 E103.81249
G0 F3600 X139.959 Y124.515
G1 F1800 X120.174 Y104.731 E105.27819
G0 F3600 X119.58 Y104.731
G1 F1800 X139.959 Y125.109 E106.78789
G0 F3600 X139.959 Y125.703
G1 F1800 X118.986 Y104.731 E108.3416
G0 F3600 X118.393 Y104.731
G1 F1800 X139.959 Y126.297 E109.93928
G0 F3600 X139.959 Y126.891
G1 F1800 X117.799 Y104.731 E111.58096
G0 F3600 X117.205 Y104.731
G1 F1800 X139.959 Y127.485 E113.26665
G0 F3600 X139.959 Y128.079
G1 F1800 X116.611 Y104.731 E114.99634
G0 F3600 X116.017 Y104.731
G1 F1800 X139.959 Y128.673 E116.77004
G0 F3600 X139.959 Y129.267
G1 F1800 X115.423 Y104.731 E118.58775
G0 F3600 X114.829 Y104.731
G1 F1800 X139.959 Y129.861 E120.44946
G0 F3600 X139.959 Y130.455
G1 F1800 X114.235 Y104.731 E122.35517
G0 F3600 X113.641 Y104.731
G1 F1800 X139.959 Y131.049 E124.30489
G0 F3600 X139.959 Y131.643
G1 F1800 X113.047 Y104.731 E126.29862
G0 F3600 X112.453 Y104.731
G1 F1800 X139.959 Y132.237 E128.33635
G0 F3600 X139.959 Y132.831
G1 F1800 X111.859 Y104.731 E130.41809
G0 F3600 X111.265 Y104.731
G1 F1800 X139.959 Y133.425 E132.54383
G0 F3600 X139.959 Y134.019
G1 F1800 X110.671 Y104.731 E134.71358
G0 F3600 X110.077 Y104.731
G1 F1800 X139.959 Y134.613 E136.92733
G0 F3600 X139.959 Y135.207
G1 F1800 X109.483 Y104.731 E139.18509
G0 F3600 X108.889 Y104.731
G1 F1800 X139.959 Y135.801 E141.48685
G0 F3600 X139.959 Y136.395
G1 F1800 X108.295 Y104.731 E143.83262
G0 F3600 X107.701 Y104.731
G1 F1800 X139.959 Y136.989 E146.2224
G0 F3600 X139.959 Y137.583
G1 F1800 X107.107 Y104.731 E148.65618
G0 F3600 X106.513 Y104.731
G1 F1800 X139.959 Y138.177 E151.13396
G0 F3600 X139.959 Y138.771
G1 F1800 X105.919 Y104.731 E153.65576
G0 F3600 X105.325 Y104.731
G1 F1800 X139.959 Y139.365 E156.22155
G0 F3600 X139.959 Y139.959
G1 F1800 X104.731 Y104.731 E158.83135
G0 F3600 X104.137 Y104.731
G1 F1800 X139.959 Y140.553 E161.48516
G0 F3600 X139.959 Y141.146
G1 F1800 X103.543 Y104.731 E164.18294
G0 F3600 X102.949 Y104.731
G1 F1800 X139.959 Y141.74 E166.92472
G0 F3600 X139.959 Y142.334
G1 F1800 X102.355 Y104.731 E169.71051
G0 F3600 X102.232 Y105.201
G1 F1800 X139.959 Y142.928 E172.50544
G0 F3600 X139.959 Y143.522
G1 F1800 X102.232 Y105.795 E175.30038
G0 F3600 X102.232 Y106.389
G1 F1800 X139.959 Y144.116 E178.09531
G0 F3600 X139.959 Y144.71
G1 F1800 X102.232 Y106.983 E180.89025
G0 F3600 X102.232 Y107.577
G1 F1800 X139.959 Y145.304 E183.68518
G0 F3600 X139.959 Y145.898
G1 F1800 X102.232 Y108.171 E186.48012
G0 F3600 X102.232 Y108.765
G1 F1800 X143.733 Y150.267 E189.55468
G0 F3600 X144.327 Y150.267
G1 F1800 X140.159 Y146.098 E189.8635
G0 F3600 X140.753 Y146.098
G1 F1800 X144.921 Y150.267 E190.17231
G0 F3600 X145.515 Y150.267
G1 F1800 X141.347 Y146.098 E190.48113
G0 F3600 X141.941 Y146.098
G1 F1800 X146.109 Y150.267 E190.78995
G0 F3600 X146.703 Y150.267
G1 F1800 X142.535 Y146.098 E191.09876
G0 F3600 X143.129 Y146.098
G1 F1800 X147.297 Y150.267 E191.40758
G0 F3600 X147.768 Y150.144
G1 F1800 X143.722 Y146.098 E191.70732
G0 F3600 X144.316 Y146.098
G1 F1800 X147.768 Y149.55 E191.96305
G0 F3600 X147.768 Y148.956
G1 F1800 X144.91 Y146.098 E192.17478
G0 F3600 X145.504 Y146.098
G1 F1800 X147.768 Y148.362 E192.34251
G0 F3600 X147.768 Y147.768
G1 F1800 X146.098 Y146.098 E192.46623
G0 F3600 X146.692 Y146.098
G1 F1800 X147.768 Y147.174 E192.54594
G0 F3600 X147.768 Y146.58
G1 F1800 X147.286 Y146.098 E192.58165
G1 F1500 E186.08165
G1 F600 Z1.3
G0 F3600 X143.139 Y150.267 Z1.3
G1 F600 Z0.3
G1 F1500 E192.58165
G1 F1800 X102.232 Y109.359 E195.6122
G0 F3600 X102.232 Y109.953
G1 F1800 X142.545 Y150.267 E198.59876
G0 F3600 X141.951 Y150.267
G1 F1800 X102.232 Y110.547 E201.5413
G0 F3600 X102.232 Y111.141
G1 F1800 X141.357 Y150.267 E204.43984
G0 F3600 X140.763 Y150.267
G1 F1800 X102.232 Y111.735 E207.29438
G0 F3600 X102.232 Y112.329
G1 F1800 X140.169 Y150.267 E210.10491
G0 F3600 X139.575 Y150.267
G1 F1800 X102.232 Y112.923 E212.87143
G0 F3600 X102.232 Y113.517
G1 F1800 X138.981 Y150.267 E215.59395
G0 F3600 X138.387 Y150.267
G1 F1800 X102.232 Y114.111 E218.27247
G0 F3600 X102.232 Y114.705
G1 F1800 X137.793 Y150.267 E220.90698
G0 F3600 X137.199 Y150.267
G1 F1800 X102.232 Y115.299 E223.49748
G0 F3600 X102.232 Y115.893
G1 F1800 X136.605 Y150.267 E226.04398
G0 F3600 X136.011 Y150.267
G1 F1800 X102.232 Y116.487 E228.54647
G0 F3600 X102.232 Y117.081
G1 F1800 X135.418 Y150.267 E231.00499
G0 F3600 X134.824 Y150.267
G1 F1800 X102.232 Y117.675 E233.41951
G0 F3600 X102.232 Y118.269
G1 F1800 X134.23 Y150.267 E235.79003
G0 F3600 X133.636 Y150.267
G1 F1800 X102.232 Y118.863 E238.11653
G0 F3600 X102.232 Y119.457
G1 F1800 X133.042 Y150.267 E240.39904
G0 F3600 X132.448 Y150.267
G1 F1800 X102.232 Y120.051 E242.63753
G0 F3600 X102.232 Y120.645
G1 F1800 X131.854 Y150.267 E244.83203
G0 F3600 X131.26 Y150.267
G1 F1800 X102.232 Y121.239 E246.98251
G0 F3600 X102.232 Y121.833
G1 F1800 X130.666 Y150.267 E249.08899
G0 F3600 X130.072 Y150.267
G1 F1800 X102.232 Y122.427 E251.15147
G0 F3600 X102.232 Y123.021
G1 F1800 X129.478 Y150.267 E253.16994
G0 F3600 X128.884 Y150.267
G1 F1800 X102.232 Y123.614 E255.14444
G0 F3600 X102.232 Y124.208
G1 F1800 X128.29 Y150.267 E257.07494
G0 F3600 X127.696 Y150.267
G1 F1800 X102.232 Y124.802 E258.96143
G0 F3600 X102.232 Y125.396
G1 F1800 X127.102 Y150.267 E260.80391
G0 F3600 X126.508 Y150.267
G1 F1800 X102.232 Y125.99 E262.60239
G0 F3600 X102.232 Y126.584
G1 F1800 X125.914 Y150.267 E264.35687
G0 F3600 X125.32 Y150.267
G1 F1800 X102.232 Y127.178 E266.06734
G0 F3600 X102.232 Y127.772
G1 F1800 X124.726 Y150.267 E267.7338
G0 F3600 X124.132 Y150.267
G1 F1800 X102.232 Y128.366 E269.35626
G0 F3600 X102.232 Y128.96
G1 F1800 X123.538 Y150.267 E270.93471
G0 F3600 X122.944 Y150.267
G1 F1800 X102.232 Y129.554 E272.46916
G0 F3600 X102.232 Y130.148
G1 F1800 X122.35 Y150.267 E273.9596
G0 F3600 X121.756 Y150.267
G1 F1800 X102.232 Y130.742 E275.40604
G0 F3600 X102.232 Y131.336
G1 F1800 X121.162 Y150.267 E276.80847
G0 F3600 X120.568 Y150.267
G1 F1800 X102.232 Y131.93 E278.1669
G0 F3600 X102.232 Y132.524
G1 F1800 X119.974 Y150.267 E279.48132
G0 F3600 X119.38 Y150.267
G1 F1800 X102.232 Y133.118 E280.75173
G0 F3600 X102.232 Y133.712
G1 F1800 X118.786 Y150.267 E281.97814
G0 F3600 X118.192 Y150.267
G1 F1800 X102.232 Y134.306 E283.16055
G0 F3600 X102.232 Y134.9
G1 F1800 X117.598 Y150.267 E284.29895
G0 F3600 X117.004 Y150.267
G1 F1800 X102.232 Y135.494 E285.39334
G0 F3600 X102.232 Y136.088
G1 F1800 X116.41 Y150.267 E286.44373
G0 F3600 X115.817 Y150.267
G1 F1800 X102.232 Y136.682 E287.45015
G0 F3600 X102.232 Y137.276
G1 F1800 X115.223 Y150.267 E288.41256
G0 F3600 X114.629 Y150.267
G1 F1800 X102.232 Y137.87 E289.33097
G0 F3600 X102.232 Y138.464
G1 F1800 X114.035 Y150.267 E290.20538
G0 F3600 X113.441 Y150.267
G1 F1800 X102.232 Y139.058 E291.03577
G0 F3600 X102.232 Y139.652
G1 F1800 X112.847 Y150.267 E291.82217
G0 F3600 X112.253 Y150.267
G1 F1800 X102.232 Y140.246 E292.56455
G0 F3600 X102.232 Y140.84
G1 F1800 X111.659 Y150.267 E293.26294
G0 F3600 X111.065 Y150.267
G1 F1800 X102.232 Y141.434 E293.91731
G0 F3600 X102.232 Y142.028
G1 F1800 X110.471 Y150.267 E294.52768
G0 F3600 X109.877 Y150.267
G1 F1800 X102.232 Y142.622 E295.09405
G0 F3600 X102.232 Y143.215
G1 F1800 X109.283 Y150.267 E295.61645
G0 F3600 X108.689 Y150.267
G1 F1800 X102.232 Y143.809 E296.09484
G0 F3600 X102.232 Y144.403
G1 F1800 X108.095 Y150.267 E296.52923
G0 F3600 X107.501 Y150.267
G1 F1800 X102.232 Y144.997 E296.91961
G0 F3600 X102.232 Y145.591
G1 F1800 X106.907 Y150.267 E297.26598
G0 F3600 X106.313 Y150.267
G1 F1800 X102.232 Y146.185 E297.56835
G0 F3600 X102.232 Y146.779
